(G-CODE GENERATED BY FLATCAM v8.994 - www.flatcam.org - Version Date: 2020/11/7)

(Name: Est. Met. V1.0-B_Cu.gbr_ncc_cnc)
(Type: G-code from Geometry)
(Units: MM)

(Created on Wednesday, 22 December 2021 at 11:53)

(This preprocessor is the default preprocessor used by FlatCAM.)
(It is made to work with MACH3 compatible motion controllers.)

(TOOL DIAMETER: 0.234 mm)
(Feedrate_XY: 60.0 mm/min)
(Feedrate_Z: 60.0 mm/min)
(Feedrate rapids 1500.0 mm/min)

(Z_Cut: -0.25 mm)
(Z_Move: 1.0 mm)
(Z Start: None mm)
(Z End: 15.0 mm)
(X,Y End: None mm)
(Steps per circle: 64)
(Preprocessor Geometry: default)

(X range:    3.1861 ...   94.4640  mm)
(Y range:    2.9393 ...   96.7123  mm)

(Spindle Speed: 0.0 RPM)
G21
G90
G94

G01 F60.00

M5
G00 Z15.0000
G00 X0.0000 Y0.0000
T3
M6    
(MSG, Change to Tool Dia = 0.2340)
M0
G00 Z15.0000

M03
G01 F60.00
G00 X3.9634 Y12.8455
G01 F60.00
G01 Z-0.2500
G01 F60.00
G01 X3.9623 Y12.8341
G01 X3.9580 Y12.7450
G01 X3.9627 Y12.6503
G01 X3.9766 Y12.5564
G01 X3.9997 Y12.4643
G01 X4.0316 Y12.3750
G01 X4.0722 Y12.2892
G01 X4.1210 Y12.2078
G01 X4.1740 Y12.1361
G01 X4.1813 Y12.1272
G01 X4.2413 Y12.0613
G01 X4.3072 Y12.0013
G01 X4.3161 Y11.9940
G01 X4.3878 Y11.9410
G01 X4.4642 Y11.8951
G01 X4.4743 Y11.8896
G01 X4.5497 Y11.8540
G01 X4.5603 Y11.8496
G01 X4.6443 Y11.8197
G01 X4.7364 Y11.7966
G01 X4.8303 Y11.7827
G01 X4.9193 Y11.7782
G01 X6.2279 Y11.7781
G01 X6.3198 Y11.7827
G01 X6.4137 Y11.7966
G01 X6.5057 Y11.8197
G01 X6.5951 Y11.8516
G01 X6.6809 Y11.8922
G01 X6.7623 Y11.9410
G01 X6.8385 Y11.9975
G01 X6.9088 Y12.0613
G01 X6.9725 Y12.1316
G01 X7.0291 Y12.2078
G01 X17.9578 Y12.2078
G01 X17.9578 Y10.7420
G01 X17.0750 Y10.7420
G01 X17.0636 Y10.7415
G01 X17.0550 Y10.7403
G01 X17.0438 Y10.7378
G01 X17.0356 Y10.7352
G01 X17.0276 Y10.7320
G01 X17.0199 Y10.7282
G01 X17.0124 Y10.7239
G01 X17.0053 Y10.7190
G01 X16.9986 Y10.7136
G01 X16.9923 Y10.7078
G01 X16.9864 Y10.7015
G01 X16.9811 Y10.6947
G01 X16.9762 Y10.6876
G01 X16.9719 Y10.6802
G01 X16.9681 Y10.6725
G01 X16.9649 Y10.6645
G01 X16.9623 Y10.6562
G01 X16.9593 Y10.6422
G01 X16.9584 Y10.6336
G01 X16.9580 Y10.6250
G01 X16.9580 Y9.0250
G01 X16.9584 Y9.0164
G01 X16.9593 Y9.0079
G01 X16.9615 Y8.9966
G01 X16.9649 Y8.9856
G01 X16.9693 Y8.9750
G01 X16.9747 Y8.9649
G01 X16.9794 Y8.9577
G01 X16.9864 Y8.9486
G01 X16.9944 Y8.9403
G01 X17.0031 Y8.9328
G01 X17.0124 Y8.9262
G01 X17.0199 Y8.9219
G01 X17.0303 Y8.9169
G01 X17.0411 Y8.9131
G01 X17.0494 Y8.9109
G01 X17.0607 Y8.9089
G01 X17.0722 Y8.9081
G01 X20.0779 Y8.9081
G01 X20.0922 Y8.9093
G01 X20.1062 Y8.9123
G01 X20.1198 Y8.9169
G01 X20.1327 Y8.9232
G01 X20.1447 Y8.9311
G01 X20.1557 Y8.9403
G01 X20.1655 Y8.9508
G01 X20.1739 Y8.9624
G01 X20.1782 Y8.9699
G01 X20.1820 Y8.9776
G01 X20.1870 Y8.9911
G01 X20.1892 Y8.9994
G01 X20.1908 Y9.0079
G01 X20.1917 Y9.0164
G01 X20.1920 Y9.0250
G01 X20.1920 Y10.6250
G01 X20.1917 Y10.6336
G01 X20.1908 Y10.6422
G01 X20.1892 Y10.6507
G01 X20.1870 Y10.6590
G01 X20.1842 Y10.6671
G01 X20.1808 Y10.6751
G01 X20.1768 Y10.6827
G01 X20.1723 Y10.6900
G01 X20.1673 Y10.6970
G01 X20.1617 Y10.7036
G01 X20.1557 Y10.7098
G01 X20.1493 Y10.7155
G01 X20.1424 Y10.7207
G01 X20.1327 Y10.7268
G01 X20.1251 Y10.7308
G01 X20.1171 Y10.7342
G01 X20.1090 Y10.7370
G01 X20.1007 Y10.7392
G01 X20.0922 Y10.7408
G01 X20.0836 Y10.7417
G01 X20.0750 Y10.7420
G01 X19.1923 Y10.7420
G01 X19.1923 Y12.2078
G01 X28.8194 Y12.2078
G01 X29.9578 Y11.0694
G01 X29.9578 Y6.4420
G01 X29.0750 Y6.4420
G01 X29.0664 Y6.4417
G01 X29.0579 Y6.4408
G01 X29.0494 Y6.4392
G01 X29.0411 Y6.4370
G01 X29.0329 Y6.4342
G01 X29.0250 Y6.4308
G01 X29.0174 Y6.4268
G01 X29.0100 Y6.4223
G01 X29.0031 Y6.4173
G01 X28.9944 Y6.4098
G01 X28.9883 Y6.4036
G01 X28.9828 Y6.3970
G01 X28.9778 Y6.3900
G01 X28.9732 Y6.3827
G01 X28.9693 Y6.3751
G01 X28.9659 Y6.3671
G01 X28.9631 Y6.3590
G01 X28.9609 Y6.3507
G01 X28.9593 Y6.3422
G01 X28.9584 Y6.3336
G01 X28.9580 Y6.3250
G01 X28.9580 Y3.3250
G01 X28.9586 Y3.3136
G01 X28.9603 Y3.3022
G01 X28.9623 Y3.2938
G01 X28.9659 Y3.2829
G01 X28.9693 Y3.2750
G01 X28.9732 Y3.2674
G01 X28.9778 Y3.2600
G01 X28.9828 Y3.2531
G01 X28.9883 Y3.2465
G01 X28.9944 Y3.2403
G01 X29.0008 Y3.2346
G01 X29.0077 Y3.2294
G01 X29.0149 Y3.2247
G01 X29.0224 Y3.2205
G01 X29.0303 Y3.2169
G01 X29.0383 Y3.2139
G01 X29.0466 Y3.2115
G01 X29.0550 Y3.2098
G01 X29.0636 Y3.2086
G01 X29.0722 Y3.2081
G01 X32.0750 Y3.2080
G01 X32.0836 Y3.2084
G01 X32.0950 Y3.2098
G01 X32.1035 Y3.2115
G01 X32.1117 Y3.2139
G01 X32.1198 Y3.2169
G01 X32.1276 Y3.2205
G01 X32.1352 Y3.2247
G01 X32.1424 Y3.2294
G01 X32.1493 Y3.2346
G01 X32.1557 Y3.2403
G01 X32.1617 Y3.2465
G01 X32.1690 Y3.2553
G01 X32.1739 Y3.2624
G01 X32.1782 Y3.2699
G01 X32.1831 Y3.2803
G01 X32.1861 Y3.2883
G01 X32.1885 Y3.2966
G01 X32.1903 Y3.3050
G01 X32.1917 Y3.3164
G01 X32.1920 Y3.3250
G01 X32.1920 Y6.3250
G01 X32.1917 Y6.3336
G01 X32.1908 Y6.3422
G01 X32.1892 Y6.3507
G01 X32.1870 Y6.3590
G01 X32.1842 Y6.3671
G01 X32.1808 Y6.3751
G01 X32.1768 Y6.3827
G01 X32.1723 Y6.3900
G01 X32.1655 Y6.3993
G01 X32.1598 Y6.4057
G01 X32.1536 Y6.4117
G01 X32.1470 Y6.4173
G01 X32.1400 Y6.4223
G01 X32.1327 Y6.4268
G01 X32.1251 Y6.4308
G01 X32.1171 Y6.4342
G01 X32.1090 Y6.4370
G01 X32.1007 Y6.4392
G01 X32.0922 Y6.4408
G01 X32.0836 Y6.4417
G01 X32.0750 Y6.4420
G01 X31.1923 Y6.4420
G01 X31.1923 Y11.3279
G01 X31.1893 Y11.3855
G01 X31.1804 Y11.4455
G01 X31.1657 Y11.5042
G01 X31.1474 Y11.5559
G01 X31.1430 Y11.5665
G01 X31.1194 Y11.6160
G01 X31.0913 Y11.6631
G01 X31.0850 Y11.6727
G01 X31.0557 Y11.7121
G01 X31.0484 Y11.7210
G01 X31.0115 Y11.7615
G01 X29.5115 Y13.2615
G01 X29.4710 Y13.2984
G01 X29.4621 Y13.3057
G01 X29.4227 Y13.3350
G01 X29.4131 Y13.3413
G01 X29.3660 Y13.3694
G01 X29.3112 Y13.3953
G01 X29.2597 Y13.4139
G01 X29.2487 Y13.4172
G01 X29.1955 Y13.4304
G01 X29.1412 Y13.4386
G01 X29.1298 Y13.4397
G01 X29.0750 Y13.4423
G01 X19.1923 Y13.4423
G01 X19.1923 Y14.9080
G01 X20.0750 Y14.9080
G01 X20.0865 Y14.9086
G01 X20.0950 Y14.9098
G01 X20.1062 Y14.9123
G01 X20.1145 Y14.9149
G01 X20.1225 Y14.9181
G01 X20.1302 Y14.9219
G01 X20.1376 Y14.9262
G01 X20.1447 Y14.9311
G01 X20.1515 Y14.9364
G01 X20.1578 Y14.9423
G01 X20.1636 Y14.9486
G01 X20.1690 Y14.9553
G01 X20.1739 Y14.9624
G01 X20.1782 Y14.9699
G01 X20.1820 Y14.9776
G01 X20.1852 Y14.9856
G01 X20.1878 Y14.9938
G01 X20.1908 Y15.0079
G01 X20.1917 Y15.0164
G01 X20.1920 Y15.0250
G01 X20.1919 Y16.6308
G01 X20.1912 Y16.6394
G01 X20.1892 Y16.6507
G01 X20.1870 Y16.6590
G01 X20.1842 Y16.6671
G01 X20.1808 Y16.6751
G01 X20.1768 Y16.6827
G01 X20.1723 Y16.6900
G01 X20.1673 Y16.6970
G01 X20.1617 Y16.7036
G01 X20.1557 Y16.7098
G01 X20.1493 Y16.7155
G01 X20.1424 Y16.7207
G01 X20.1352 Y16.7254
G01 X20.1276 Y16.7295
G01 X20.1198 Y16.7331
G01 X20.1117 Y16.7361
G01 X20.1035 Y16.7385
G01 X20.0950 Y16.7403
G01 X20.0865 Y16.7415
G01 X20.0750 Y16.7420
G01 X17.0722 Y16.7420
G01 X17.0579 Y16.7408
G01 X17.0438 Y16.7378
G01 X17.0329 Y16.7342
G01 X17.0199 Y16.7282
G01 X17.0077 Y16.7207
G01 X16.9965 Y16.7117
G01 X16.9864 Y16.7015
G01 X16.9778 Y16.6900
G01 X16.9732 Y16.6827
G01 X16.9693 Y16.6751
G01 X16.9659 Y16.6671
G01 X16.9631 Y16.6590
G01 X16.9609 Y16.6507
G01 X16.9593 Y16.6422
G01 X16.9584 Y16.6336
G01 X16.9580 Y16.6250
G01 X16.9580 Y15.0250
G01 X16.9584 Y15.0164
G01 X16.9593 Y15.0079
G01 X16.9609 Y14.9994
G01 X16.9631 Y14.9911
G01 X16.9659 Y14.9829
G01 X16.9693 Y14.9750
G01 X16.9732 Y14.9674
G01 X16.9778 Y14.9600
G01 X16.9828 Y14.9531
G01 X16.9883 Y14.9465
G01 X16.9944 Y14.9403
G01 X17.0008 Y14.9346
G01 X17.0077 Y14.9294
G01 X17.0174 Y14.9232
G01 X17.0250 Y14.9193
G01 X17.0329 Y14.9159
G01 X17.0411 Y14.9131
G01 X17.0494 Y14.9109
G01 X17.0579 Y14.9093
G01 X17.0664 Y14.9084
G01 X17.0750 Y14.9080
G01 X17.9578 Y14.9080
G01 X17.9578 Y13.4423
G01 X6.8941 Y13.4423
G01 X6.8385 Y13.4925
G01 X6.7623 Y13.5491
G01 X6.6809 Y13.5979
G01 X6.6003 Y13.6361
G01 X6.5897 Y13.6405
G01 X6.5112 Y13.6686
G01 X6.5002 Y13.6719
G01 X6.4137 Y13.6935
G01 X6.3255 Y13.7067
G01 X6.3141 Y13.7078
G01 X6.2250 Y13.7120
G01 X4.9193 Y13.7119
G01 X4.8303 Y13.7074
G01 X4.7364 Y13.6935
G01 X4.6443 Y13.6704
G01 X4.5603 Y13.6405
G01 X4.5497 Y13.6361
G01 X4.4743 Y13.6004
G01 X4.4642 Y13.5950
G01 X4.3878 Y13.5491
G01 X4.3161 Y13.4961
G01 X4.3072 Y13.4888
G01 X4.2413 Y13.4288
G01 X4.1775 Y13.3585
G01 X4.1210 Y13.2823
G01 X4.0722 Y13.2009
G01 X4.0316 Y13.1151
G01 X3.9997 Y13.0257
G01 X3.9766 Y12.9337
G01 X3.9634 Y12.8455
G00 Z1.0000
G00 X4.5757 Y13.8200
G01 F60.00
G01 Z-0.2500
G01 F60.00
G01 X4.5910 Y13.8455
G01 X4.6021 Y13.8681
G01 X4.6101 Y13.8871
G01 X4.6192 Y13.9137
G01 X4.6252 Y13.9369
G01 X4.6295 Y13.9592
G01 X4.6327 Y13.9850
G01 X4.6339 Y14.0130
G01 X4.6330 Y14.0410
G01 X4.6305 Y14.0636
G01 X4.6261 Y14.0892
G01 X4.6192 Y14.1164
G01 X4.6101 Y14.1429
G01 X4.6021 Y14.1620
G01 X4.5910 Y14.1845
G01 X4.5757 Y14.2101
G01 X4.5921 Y14.2044
G01 X4.6081 Y14.1998
G01 X4.6929 Y14.1785
G01 X4.7132 Y14.1744
G01 X4.8005 Y14.1614
G01 X4.8162 Y14.1595
G01 X4.9161 Y14.1544
G01 X6.2250 Y14.1542
G01 X6.2388 Y14.1546
G01 X6.3339 Y14.1595
G01 X6.3496 Y14.1614
G01 X6.4341 Y14.1739
G01 X6.4571 Y14.1785
G01 X6.5420 Y14.1998
G01 X6.5579 Y14.2044
G01 X6.5744 Y14.2101
G01 X6.5591 Y14.1845
G01 X6.5480 Y14.1620
G01 X6.5399 Y14.1429
G01 X6.5309 Y14.1164
G01 X6.5240 Y14.0892
G01 X6.5195 Y14.0636
G01 X6.5171 Y14.0410
G01 X6.5161 Y14.0170
G01 X6.5171 Y13.9890
G01 X6.5195 Y13.9665
G01 X6.5240 Y13.9408
G01 X6.5309 Y13.9137
G01 X6.5399 Y13.8871
G01 X6.5480 Y13.8681
G01 X6.5591 Y13.8455
G01 X6.5744 Y13.8200
G01 X6.5579 Y13.8257
G01 X6.5420 Y13.8303
G01 X6.4571 Y13.8516
G01 X6.4341 Y13.8562
G01 X6.3496 Y13.8687
G01 X6.3339 Y13.8706
G01 X6.2388 Y13.8755
G01 X6.2250 Y13.8758
G01 X4.9161 Y13.8757
G01 X4.8162 Y13.8706
G01 X4.8005 Y13.8687
G01 X4.7132 Y13.8557
G01 X4.6929 Y13.8516
G01 X4.6081 Y13.8303
G01 X4.5921 Y13.8257
G01 X4.5757 Y13.8200
G00 Z1.0000
G00 X3.9634 Y15.3855
G01 F60.00
G01 Z-0.2500
G01 F60.00
G01 X3.9623 Y15.3741
G01 X3.9580 Y15.2850
G01 X3.9627 Y15.1903
G01 X3.9766 Y15.0964
G01 X3.9997 Y15.0043
G01 X4.0316 Y14.9150
G01 X4.0722 Y14.8292
G01 X4.1210 Y14.7478
G01 X4.1740 Y14.6761
G01 X4.1813 Y14.6672
G01 X4.2413 Y14.6013
G01 X4.3072 Y14.5413
G01 X4.3161 Y14.5340
G01 X4.3878 Y14.4810
G01 X4.4642 Y14.4351
G01 X4.4743 Y14.4296
G01 X4.5497 Y14.3940
G01 X4.5603 Y14.3896
G01 X4.6443 Y14.3597
G01 X4.7364 Y14.3366
G01 X4.8303 Y14.3227
G01 X4.9222 Y14.3181
G01 X6.2308 Y14.3182
G01 X6.3198 Y14.3227
G01 X6.4137 Y14.3366
G01 X6.5057 Y14.3597
G01 X6.5951 Y14.3916
G01 X6.6757 Y14.4296
G01 X6.6859 Y14.4351
G01 X6.7623 Y14.4810
G01 X6.8385 Y14.5375
G01 X6.9088 Y14.6013
G01 X6.9688 Y14.6672
G01 X6.9761 Y14.6761
G01 X7.0291 Y14.7478
G01 X7.0779 Y14.8292
G01 X7.1161 Y14.9097
G01 X7.1205 Y14.9203
G01 X7.1504 Y15.0043
G01 X7.1722 Y15.0908
G01 X7.1744 Y15.1020
G01 X7.1874 Y15.1903
G01 X7.1920 Y15.2822
G01 X7.1919 Y15.2908
G01 X7.1874 Y15.3798
G01 X7.1735 Y15.4737
G01 X7.1504 Y15.5657
G01 X7.1184 Y15.6551
G01 X7.0779 Y15.7409
G01 X7.0291 Y15.8223
G01 X6.9725 Y15.8985
G01 X6.9088 Y15.9688
G01 X6.8385 Y16.0325
G01 X6.7623 Y16.0891
G01 X6.6809 Y16.1379
G01 X6.5951 Y16.1784
G01 X6.5057 Y16.2104
G01 X6.4137 Y16.2335
G01 X6.3198 Y16.2474
G01 X6.2279 Y16.2520
G01 X4.9193 Y16.2519
G01 X4.8303 Y16.2474
G01 X4.7364 Y16.2335
G01 X4.6443 Y16.2104
G01 X4.5576 Y16.1795
G01 X4.5497 Y16.1761
G01 X4.4743 Y16.1404
G01 X4.4642 Y16.1350
G01 X4.3878 Y16.0891
G01 X4.3161 Y16.0361
G01 X4.3072 Y16.0288
G01 X4.2413 Y15.9688
G01 X4.1813 Y15.9028
G01 X4.1740 Y15.8940
G01 X4.1210 Y15.8223
G01 X4.0751 Y15.7459
G01 X4.0696 Y15.7357
G01 X4.0316 Y15.6551
G01 X4.0015 Y15.5712
G01 X3.9981 Y15.5602
G01 X3.9766 Y15.4737
G01 X3.9634 Y15.3855
G00 Z1.0000
G00 X3.8910 Y17.2078
G01 F60.00
G01 Z-0.2500
G01 F60.00
G01 X3.9580 Y17.2078
G01 X3.9581 Y16.9722
G01 X3.9586 Y16.9636
G01 X3.9598 Y16.9550
G01 X3.9631 Y16.9411
G01 X3.9659 Y16.9329
G01 X3.9693 Y16.9250
G01 X3.9732 Y16.9174
G01 X3.9778 Y16.9100
G01 X3.9828 Y16.9031
G01 X3.9883 Y16.8965
G01 X3.9944 Y16.8903
G01 X4.0008 Y16.8846
G01 X4.0077 Y16.8794
G01 X4.0149 Y16.8747
G01 X4.0224 Y16.8705
G01 X4.0303 Y16.8669
G01 X4.0383 Y16.8639
G01 X4.0466 Y16.8615
G01 X4.0550 Y16.8598
G01 X4.0636 Y16.8586
G01 X4.0750 Y16.8580
G01 X7.0750 Y16.8580
G01 X7.0894 Y16.8589
G01 X7.0979 Y16.8603
G01 X7.1062 Y16.8623
G01 X7.1198 Y16.8669
G01 X7.1276 Y16.8705
G01 X7.1352 Y16.8747
G01 X7.1424 Y16.8794
G01 X7.1493 Y16.8846
G01 X7.1598 Y16.8944
G01 X7.1690 Y16.9053
G01 X7.1739 Y16.9124
G01 X7.1782 Y16.9199
G01 X7.1842 Y16.9329
G01 X7.1878 Y16.9438
G01 X7.1908 Y16.9579
G01 X7.1919 Y16.9693
G01 X7.1920 Y17.2078
G01 X7.2591 Y17.2078
G01 X7.2598 Y16.9842
G01 X7.2554 Y16.9392
G01 X7.2449 Y16.9047
G01 X7.2279 Y16.8729
G01 X7.2050 Y16.8450
G01 X7.1772 Y16.8222
G01 X7.1454 Y16.8052
G01 X7.1109 Y16.7947
G01 X7.0657 Y16.7903
G01 X6.7849 Y16.7905
G01 X6.7690 Y16.7895
G01 X6.7532 Y16.7870
G01 X6.7349 Y16.7825
G01 X6.7198 Y16.7772
G01 X6.7052 Y16.7707
G01 X6.6975 Y16.7667
G01 X6.6839 Y16.7584
G01 X6.6710 Y16.7490
G01 X6.6644 Y16.7435
G01 X6.6527 Y16.7325
G01 X6.6421 Y16.7206
G01 X6.6341 Y16.7102
G01 X6.6292 Y16.7031
G01 X6.6211 Y16.6893
G01 X6.6142 Y16.6749
G01 X6.6110 Y16.6669
G01 X6.6067 Y16.6545
G01 X6.6027 Y16.6391
G01 X6.6011 Y16.6306
G01 X6.5990 Y16.6147
G01 X6.5984 Y16.5959
G01 X6.5990 Y16.5828
G01 X6.6000 Y16.5742
G01 X6.6020 Y16.5613
G01 X6.6051 Y16.5485
G01 X6.6075 Y16.5402
G01 X6.6109 Y16.5306
G01 X6.6141 Y16.5226
G01 X6.6197 Y16.5107
G01 X6.6291 Y16.4944
G01 X6.6419 Y16.4768
G01 X6.6546 Y16.4629
G01 X6.6663 Y16.4521
G01 X6.6731 Y16.4467
G01 X6.6837 Y16.4390
G01 X6.6973 Y16.4307
G01 X6.9133 Y16.3152
G01 X7.1011 Y16.1611
G01 X7.2552 Y15.9733
G01 X7.3697 Y15.7592
G01 X7.4402 Y15.5267
G01 X7.4640 Y15.2850
G01 X7.4402 Y15.0433
G01 X7.3697 Y14.8109
G01 X7.2552 Y14.5967
G01 X7.1011 Y14.4090
G01 X6.9133 Y14.2549
G01 X6.7789 Y14.1830
G01 X6.7629 Y14.1731
G01 X6.7479 Y14.1616
G01 X6.7362 Y14.1508
G01 X6.7235 Y14.1369
G01 X6.7139 Y14.1241
G01 X6.7054 Y14.1106
G01 X6.7000 Y14.1004
G01 X6.6935 Y14.0859
G01 X6.6882 Y14.0708
G01 X6.6842 Y14.0553
G01 X6.6809 Y14.0339
G01 X6.6800 Y14.0179
G01 X6.6801 Y14.0093
G01 X6.6809 Y13.9962
G01 X6.6831 Y13.9804
G01 X6.6882 Y13.9593
G01 X6.6957 Y13.9389
G01 X6.7026 Y13.9245
G01 X6.7092 Y13.9132
G01 X6.7139 Y13.9060
G01 X6.7235 Y13.8932
G01 X6.7382 Y13.8772
G01 X6.7479 Y13.8684
G01 X6.7547 Y13.8631
G01 X6.7653 Y13.8554
G01 X6.7764 Y13.8485
G01 X6.9133 Y13.7752
G01 X6.9466 Y13.7481
G01 X6.9572 Y13.7404
G01 X6.9709 Y13.7321
G01 X6.9878 Y13.7237
G01 X7.0054 Y13.7171
G01 X7.0236 Y13.7123
G01 X7.0394 Y13.7096
G01 X7.0479 Y13.7087
G01 X7.0639 Y13.7080
G01 X17.5000 Y13.7080
G01 X17.5217 Y13.7092
G01 X17.5375 Y13.7117
G01 X17.5502 Y13.7147
G01 X17.5612 Y13.7181
G01 X17.5762 Y13.7237
G01 X17.5906 Y13.7307
G01 X17.6043 Y13.7388
G01 X17.6114 Y13.7437
G01 X17.6241 Y13.7534
G01 X17.6358 Y13.7642
G01 X17.6466 Y13.7760
G01 X17.6564 Y13.7887
G01 X17.6613 Y13.7958
G01 X17.6694 Y13.8095
G01 X17.6763 Y13.8239
G01 X17.6820 Y13.8388
G01 X17.6846 Y13.8471
G01 X17.6884 Y13.8626
G01 X17.6908 Y13.8784
G01 X17.6921 Y13.9000
G01 X17.6919 Y14.4530
G01 X17.6912 Y14.4661
G01 X17.6889 Y14.4819
G01 X17.6853 Y14.4975
G01 X17.6829 Y14.5057
G01 X17.6775 Y14.5207
G01 X17.6707 Y14.5352
G01 X17.6666 Y14.5428
G01 X17.6581 Y14.5563
G01 X17.6466 Y14.5713
G01 X17.6338 Y14.5851
G01 X17.6196 Y14.5975
G01 X17.6043 Y14.6085
G01 X17.5880 Y14.6179
G01 X17.5709 Y14.6257
G01 X17.5530 Y14.6318
G01 X17.5403 Y14.6350
G01 X17.5318 Y14.6366
G01 X17.5160 Y14.6386
G01 X17.5000 Y14.6393
G01 X17.0845 Y14.6393
G01 X17.0000 Y14.6476
G01 X16.9278 Y14.6695
G01 X16.8612 Y14.7051
G01 X16.8029 Y14.7529
G01 X16.7551 Y14.8112
G01 X16.7195 Y14.8778
G01 X16.6976 Y14.9500
G01 X16.6893 Y15.0345
G01 X16.6893 Y16.6156
G01 X16.6976 Y16.7001
G01 X16.7195 Y16.7723
G01 X16.7551 Y16.8388
G01 X16.8029 Y16.8971
G01 X16.8612 Y16.9450
G01 X16.9278 Y16.9806
G01 X17.0000 Y17.0025
G01 X17.0845 Y17.0108
G01 X20.0656 Y17.0108
G01 X20.1501 Y17.0025
G01 X20.2223 Y16.9806
G01 X20.2888 Y16.9450
G01 X20.3471 Y16.8971
G01 X20.3950 Y16.8388
G01 X20.4306 Y16.7723
G01 X20.4525 Y16.7001
G01 X20.4608 Y16.6156
G01 X20.4608 Y15.0345
G01 X20.4525 Y14.9500
G01 X20.4306 Y14.8778
G01 X20.3950 Y14.8112
G01 X20.3471 Y14.7529
G01 X20.2888 Y14.7051
G01 X20.2223 Y14.6695
G01 X20.1501 Y14.6476
G01 X20.0656 Y14.6393
G01 X19.6500 Y14.6393
G01 X19.6341 Y14.6386
G01 X19.6182 Y14.6366
G01 X19.6098 Y14.6350
G01 X19.5970 Y14.6318
G01 X19.5792 Y14.6257
G01 X19.5621 Y14.6179
G01 X19.5458 Y14.6085
G01 X19.5305 Y14.5975
G01 X19.5163 Y14.5851
G01 X19.5034 Y14.5713
G01 X19.4920 Y14.5563
G01 X19.4873 Y14.5491
G01 X19.4794 Y14.5352
G01 X19.4726 Y14.5207
G01 X19.4671 Y14.5057
G01 X19.4629 Y14.4903
G01 X19.4612 Y14.4819
G01 X19.4589 Y14.4661
G01 X19.4581 Y14.4530
G01 X19.4580 Y13.9000
G01 X19.4589 Y13.8812
G01 X19.4612 Y13.8654
G01 X19.4629 Y13.8570
G01 X19.4671 Y13.8416
G01 X19.4726 Y13.8265
G01 X19.4794 Y13.8121
G01 X19.4835 Y13.8045
G01 X19.4904 Y13.7933
G01 X19.4998 Y13.7805
G01 X19.5103 Y13.7684
G01 X19.5163 Y13.7622
G01 X19.5282 Y13.7516
G01 X19.5387 Y13.7437
G01 X19.5458 Y13.7388
G01 X19.5595 Y13.7307
G01 X19.5739 Y13.7237
G01 X19.5819 Y13.7206
G01 X19.5970 Y13.7155
G01 X19.6154 Y13.7112
G01 X19.6312 Y13.7089
G01 X19.6500 Y13.7080
G01 X29.0222 Y13.7080
G01 X29.0382 Y13.7087
G01 X29.0750 Y13.7123
G01 X29.2481 Y13.6952
G01 X29.4146 Y13.6447
G01 X29.5680 Y13.5627
G01 X29.7024 Y13.4524
G01 X29.7259 Y13.4238
G01 X29.7367 Y13.4120
G01 X31.1621 Y11.9867
G01 X31.1738 Y11.9759
G01 X31.2024 Y11.9524
G01 X31.3127 Y11.8180
G01 X31.3947 Y11.6646
G01 X31.4452 Y11.4981
G01 X31.4623 Y11.3250
G01 X31.4587 Y11.2882
G01 X31.4580 Y11.2722
G01 X31.4580 Y6.9028
G01 X31.4592 Y6.8811
G01 X31.4617 Y6.8654
G01 X31.4655 Y6.8498
G01 X31.4706 Y6.8347
G01 X31.4737 Y6.8267
G01 X31.4807 Y6.8123
G01 X31.4888 Y6.7985
G01 X31.4937 Y6.7914
G01 X31.5034 Y6.7788
G01 X31.5142 Y6.7670
G01 X31.5260 Y6.7562
G01 X31.5387 Y6.7465
G01 X31.5458 Y6.7416
G01 X31.5595 Y6.7335
G01 X31.5739 Y6.7265
G01 X31.5888 Y6.7209
G01 X31.5998 Y6.7175
G01 X31.6126 Y6.7145
G01 X31.6255 Y6.7124
G01 X31.6341 Y6.7115
G01 X31.6472 Y6.7108
G01 X32.0656 Y6.7108
G01 X32.1501 Y6.7025
G01 X32.2223 Y6.6806
G01 X32.2888 Y6.6450
G01 X32.3471 Y6.5971
G01 X32.3950 Y6.5388
G01 X32.4306 Y6.4723
G01 X32.4525 Y6.4001
G01 X32.4608 Y6.3156
G01 X32.4608 Y3.3345
G01 X32.4525 Y3.2500
G01 X32.4306 Y3.1778
G01 X32.3950 Y3.1112
G01 X32.3471 Y3.0529
G01 X32.2888 Y3.0051
G01 X32.2223 Y2.9695
G01 X32.1501 Y2.9476
G01 X32.0656 Y2.9393
G01 X29.0845 Y2.9393
G01 X29.0000 Y2.9476
G01 X28.9278 Y2.9695
G01 X28.8612 Y3.0051
G01 X28.8029 Y3.0529
G01 X28.7551 Y3.1112
G01 X28.7195 Y3.1778
G01 X28.6976 Y3.2500
G01 X28.6893 Y3.3345
G01 X28.6893 Y6.3156
G01 X28.6976 Y6.4001
G01 X28.7195 Y6.4723
G01 X28.7551 Y6.5388
G01 X28.8029 Y6.5971
G01 X28.8612 Y6.6450
G01 X28.9278 Y6.6806
G01 X29.0000 Y6.7025
G01 X29.0845 Y6.7108
G01 X29.5029 Y6.7108
G01 X29.5160 Y6.7115
G01 X29.5246 Y6.7124
G01 X29.5375 Y6.7145
G01 X29.5502 Y6.7175
G01 X29.5612 Y6.7209
G01 X29.5762 Y6.7265
G01 X29.5906 Y6.7335
G01 X29.6043 Y6.7416
G01 X29.6114 Y6.7465
G01 X29.6241 Y6.7562
G01 X29.6358 Y6.7670
G01 X29.6466 Y6.7788
G01 X29.6520 Y6.7855
G01 X29.6613 Y6.7985
G01 X29.6694 Y6.8123
G01 X29.6763 Y6.8267
G01 X29.6820 Y6.8416
G01 X29.6846 Y6.8498
G01 X29.6884 Y6.8654
G01 X29.6908 Y6.8811
G01 X29.6921 Y6.9028
G01 X29.6921 Y10.8798
G01 X29.6912 Y10.8986
G01 X29.6884 Y10.9172
G01 X29.6838 Y10.9355
G01 X29.6775 Y10.9532
G01 X29.6694 Y10.9703
G01 X29.6597 Y10.9864
G01 X29.6485 Y11.0016
G01 X29.6378 Y11.0135
G01 X28.7655 Y11.8858
G01 X28.7538 Y11.8966
G01 X28.7411 Y11.9064
G01 X28.7316 Y11.9128
G01 X28.7177 Y11.9207
G01 X28.7059 Y11.9263
G01 X28.6979 Y11.9295
G01 X28.6855 Y11.9338
G01 X28.6728 Y11.9371
G01 X28.6644 Y11.9389
G01 X28.6514 Y11.9408
G01 X28.6298 Y11.9421
G01 X19.6500 Y11.9421
G01 X19.6341 Y11.9414
G01 X19.6255 Y11.9404
G01 X19.6126 Y11.9384
G01 X19.5970 Y11.9346
G01 X19.5819 Y11.9295
G01 X19.5739 Y11.9263
G01 X19.5595 Y11.9194
G01 X19.5458 Y11.9113
G01 X19.5387 Y11.9064
G01 X19.5260 Y11.8966
G01 X19.5142 Y11.8858
G01 X19.5034 Y11.8741
G01 X19.4937 Y11.8614
G01 X19.4888 Y11.8543
G01 X19.4807 Y11.8406
G01 X19.4737 Y11.8262
G01 X19.4706 Y11.8182
G01 X19.4655 Y11.8030
G01 X19.4617 Y11.7875
G01 X19.4592 Y11.7717
G01 X19.4580 Y11.7500
G01 X19.4581 Y11.1971
G01 X19.4589 Y11.1840
G01 X19.4612 Y11.1682
G01 X19.4629 Y11.1598
G01 X19.4671 Y11.1443
G01 X19.4726 Y11.1293
G01 X19.4794 Y11.1148
G01 X19.4873 Y11.1010
G01 X19.4920 Y11.0938
G01 X19.5034 Y11.0788
G01 X19.5163 Y11.0650
G01 X19.5305 Y11.0526
G01 X19.5458 Y11.0416
G01 X19.5621 Y11.0321
G01 X19.5792 Y11.0243
G01 X19.5970 Y11.0183
G01 X19.6098 Y11.0151
G01 X19.6182 Y11.0135
G01 X19.6341 Y11.0115
G01 X19.6500 Y11.0108
G01 X20.0656 Y11.0108
G01 X20.1501 Y11.0025
G01 X20.2223 Y10.9806
G01 X20.2888 Y10.9450
G01 X20.3471 Y10.8971
G01 X20.3950 Y10.8388
G01 X20.4306 Y10.7723
G01 X20.4525 Y10.7001
G01 X20.4608 Y10.6156
G01 X20.4608 Y9.0345
G01 X20.4525 Y8.9500
G01 X20.4306 Y8.8778
G01 X20.3950 Y8.8112
G01 X20.3471 Y8.7529
G01 X20.2888 Y8.7051
G01 X20.2223 Y8.6695
G01 X20.1501 Y8.6476
G01 X20.0656 Y8.6393
G01 X17.0845 Y8.6393
G01 X17.0000 Y8.6476
G01 X16.9278 Y8.6695
G01 X16.8612 Y8.7051
G01 X16.8029 Y8.7529
G01 X16.7551 Y8.8112
G01 X16.7195 Y8.8778
G01 X16.6976 Y8.9500
G01 X16.6893 Y9.0345
G01 X16.6893 Y10.6156
G01 X16.6976 Y10.7001
G01 X16.7195 Y10.7723
G01 X16.7551 Y10.8388
G01 X16.8029 Y10.8971
G01 X16.8612 Y10.9450
G01 X16.9278 Y10.9806
G01 X17.0000 Y11.0025
G01 X17.0845 Y11.0108
G01 X17.5000 Y11.0108
G01 X17.5160 Y11.0115
G01 X17.5318 Y11.0135
G01 X17.5403 Y11.0151
G01 X17.5530 Y11.0183
G01 X17.5709 Y11.0243
G01 X17.5880 Y11.0321
G01 X17.6043 Y11.0416
G01 X17.6219 Y11.0544
G01 X17.6358 Y11.0670
G01 X17.6485 Y11.0810
G01 X17.6597 Y11.0961
G01 X17.6680 Y11.1098
G01 X17.6720 Y11.1174
G01 X17.6775 Y11.1293
G01 X17.6829 Y11.1443
G01 X17.6853 Y11.1526
G01 X17.6889 Y11.1682
G01 X17.6912 Y11.1840
G01 X17.6919 Y11.1971
G01 X17.6921 Y11.7500
G01 X17.6914 Y11.7660
G01 X17.6904 Y11.7746
G01 X17.6878 Y11.7903
G01 X17.6838 Y11.8058
G01 X17.6785 Y11.8209
G01 X17.6720 Y11.8354
G01 X17.6666 Y11.8456
G01 X17.6581 Y11.8591
G01 X17.6485 Y11.8719
G01 X17.6398 Y11.8817
G01 X17.6317 Y11.8898
G01 X17.6196 Y11.9003
G01 X17.6067 Y11.9097
G01 X17.5931 Y11.9180
G01 X17.5788 Y11.9251
G01 X17.5709 Y11.9285
G01 X17.5558 Y11.9338
G01 X17.5431 Y11.9371
G01 X17.5347 Y11.9389
G01 X17.5217 Y11.9408
G01 X17.5000 Y11.9421
G01 X7.2462 Y11.9419
G01 X7.2331 Y11.9412
G01 X7.2173 Y11.9389
G01 X7.1962 Y11.9338
G01 X7.1811 Y11.9285
G01 X7.1732 Y11.9251
G01 X7.1614 Y11.9194
G01 X7.1476 Y11.9113
G01 X7.1323 Y11.9003
G01 X7.1203 Y11.8898
G01 X7.1122 Y11.8817
G01 X7.1011 Y11.8690
G01 X6.9133 Y11.7149
G01 X6.6992 Y11.6004
G01 X6.4667 Y11.5299
G01 X6.2856 Y11.5121
G01 X4.8645 Y11.5121
G01 X4.6833 Y11.5299
G01 X4.4509 Y11.6004
G01 X4.2367 Y11.7149
G01 X4.0490 Y11.8690
G01 X3.8949 Y12.0567
G01 X3.7804 Y12.2709
G01 X3.7099 Y12.5033
G01 X3.6861 Y12.7450
G01 X3.7099 Y12.9867
G01 X3.7804 Y13.2192
G01 X3.8949 Y13.4333
G01 X4.0490 Y13.6211
G01 X4.2367 Y13.7752
G01 X4.3736 Y13.8485
G01 X4.3848 Y13.8554
G01 X4.3977 Y13.8648
G01 X4.4043 Y13.8703
G01 X4.4159 Y13.8813
G01 X4.4247 Y13.8910
G01 X4.4301 Y13.8977
G01 X4.4378 Y13.9083
G01 X4.4446 Y13.9195
G01 X4.4488 Y13.9271
G01 X4.4544 Y13.9389
G01 X4.4619 Y13.9593
G01 X4.4665 Y13.9776
G01 X4.4695 Y13.9991
G01 X4.4701 Y14.0122
G01 X4.4700 Y14.0208
G01 X4.4692 Y14.0339
G01 X4.4674 Y14.0468
G01 X4.4652 Y14.0581
G01 X4.4610 Y14.0735
G01 X4.4555 Y14.0885
G01 X4.4475 Y14.1056
G01 X4.4393 Y14.1193
G01 X4.4301 Y14.1323
G01 X4.4228 Y14.1412
G01 X4.4118 Y14.1528
G01 X4.4021 Y14.1616
G01 X4.3954 Y14.1670
G01 X4.3848 Y14.1747
G01 X4.3736 Y14.1816
G01 X4.2367 Y14.2549
G01 X4.0490 Y14.4090
G01 X3.8949 Y14.5967
G01 X3.7804 Y14.8109
G01 X3.7099 Y15.0433
G01 X3.6861 Y15.2850
G01 X3.7099 Y15.5267
G01 X3.7804 Y15.7592
G01 X3.8949 Y15.9733
G01 X4.0490 Y16.1611
G01 X4.2367 Y16.3152
G01 X4.4527 Y16.4307
G01 X4.4664 Y16.4390
G01 X4.4770 Y16.4467
G01 X4.4837 Y16.4521
G01 X4.4955 Y16.4629
G01 X4.5082 Y16.4768
G01 X4.5210 Y16.4944
G01 X4.5304 Y16.5107
G01 X4.5360 Y16.5226
G01 X4.5392 Y16.5306
G01 X4.5435 Y16.5430
G01 X4.5468 Y16.5557
G01 X4.5486 Y16.5641
G01 X4.5501 Y16.5742
G01 X4.5511 Y16.5828
G01 X4.5517 Y16.5959
G01 X4.5510 Y16.6147
G01 X4.5490 Y16.6306
G01 X4.5474 Y16.6391
G01 X4.5434 Y16.6545
G01 X4.5391 Y16.6669
G01 X4.5359 Y16.6749
G01 X4.5290 Y16.6893
G01 X4.5208 Y16.7031
G01 X4.5160 Y16.7102
G01 X4.5080 Y16.7206
G01 X4.4973 Y16.7325
G01 X4.4857 Y16.7435
G01 X4.4791 Y16.7490
G01 X4.4662 Y16.7584
G01 X4.4525 Y16.7667
G01 X4.4449 Y16.7707
G01 X4.4303 Y16.7772
G01 X4.4152 Y16.7825
G01 X4.3969 Y16.7870
G01 X4.3811 Y16.7895
G01 X4.3652 Y16.7905
G01 X4.0843 Y16.7903
G01 X4.0392 Y16.7947
G01 X4.0047 Y16.8052
G01 X3.9729 Y16.8222
G01 X3.9450 Y16.8450
G01 X3.9222 Y16.8729
G01 X3.9052 Y16.9047
G01 X3.8947 Y16.9392
G01 X3.8903 Y16.9842
G01 X3.8910 Y17.2078
G00 Z1.0000
G00 X4.0750 Y18.7920
G01 F60.00
G01 Z-0.2500
G01 F60.00
G01 X4.0607 Y18.7912
G01 X4.0522 Y18.7898
G01 X4.0438 Y18.7878
G01 X4.0356 Y18.7852
G01 X4.0276 Y18.7820
G01 X4.0149 Y18.7754
G01 X4.0077 Y18.7707
G01 X4.0008 Y18.7655
G01 X3.9903 Y18.7557
G01 X3.9811 Y18.7447
G01 X3.9762 Y18.7376
G01 X3.9719 Y18.7302
G01 X3.9669 Y18.7198
G01 X3.9623 Y18.7062
G01 X3.9598 Y18.6950
G01 X3.9582 Y18.6808
G01 X3.9580 Y18.4423
G01 X3.8910 Y18.4423
G01 X3.8903 Y18.6659
G01 X3.8947 Y18.7109
G01 X3.9052 Y18.7454
G01 X3.9222 Y18.7772
G01 X3.9450 Y18.8050
G01 X3.9729 Y18.8279
G01 X4.0047 Y18.8449
G01 X4.0392 Y18.8554
G01 X4.0843 Y18.8598
G01 X4.9578 Y18.8585
G01 X4.9578 Y18.7920
G01 X4.0750 Y18.7920
G00 Z1.0000
G00 X7.1920 Y18.6750
G01 F60.00
G01 Z-0.2500
G01 F60.00
G01 X7.1917 Y18.6836
G01 X7.1903 Y18.6950
G01 X7.1878 Y18.7062
G01 X7.1842 Y18.7171
G01 X7.1808 Y18.7251
G01 X7.1754 Y18.7352
G01 X7.1707 Y18.7424
G01 X7.1636 Y18.7515
G01 X7.1557 Y18.7598
G01 X7.1493 Y18.7655
G01 X7.1400 Y18.7723
G01 X7.1327 Y18.7768
G01 X7.1251 Y18.7808
G01 X7.1145 Y18.7852
G01 X7.1062 Y18.7878
G01 X7.0950 Y18.7903
G01 X7.0865 Y18.7915
G01 X7.0750 Y18.7920
G01 X6.1923 Y18.7920
G01 X6.1923 Y18.8585
G01 X7.0657 Y18.8598
G01 X7.1109 Y18.8554
G01 X7.1454 Y18.8449
G01 X7.1772 Y18.8279
G01 X7.2050 Y18.8050
G01 X7.2279 Y18.7772
G01 X7.2449 Y18.7454
G01 X7.2554 Y18.7109
G01 X7.2598 Y18.6659
G01 X7.2591 Y18.4423
G01 X7.1920 Y18.4423
G01 X7.1920 Y18.6750
G00 Z1.0000
G00 X6.5112 Y16.3780
G01 F60.00
G01 Z-0.2500
G01 F60.00
G01 X6.4571 Y16.3916
G01 X6.4437 Y16.3945
G01 X6.3447 Y16.4094
G01 X6.3221 Y16.4114
G01 X6.2388 Y16.4155
G01 X6.2250 Y16.4158
G01 X4.9202 Y16.4158
G01 X4.8259 Y16.4113
G01 X4.8054 Y16.4094
G01 X4.7064 Y16.3945
G01 X4.6929 Y16.3916
G01 X4.6389 Y16.3780
G01 X4.6529 Y16.3970
G01 X4.6619 Y16.4110
G01 X4.6745 Y16.4328
G01 X4.6838 Y16.4518
G01 X4.6918 Y16.4709
G01 X4.6988 Y16.4908
G01 X4.7034 Y16.5068
G01 X4.7083 Y16.5274
G01 X4.7122 Y16.5503
G01 X4.7140 Y16.5660
G01 X4.7154 Y16.5900
G01 X4.7154 Y16.6078
G01 X4.7140 Y16.6317
G01 X4.7110 Y16.6547
G01 X4.7076 Y16.6731
G01 X4.7024 Y16.6942
G01 X6.4477 Y16.6942
G01 X6.4424 Y16.6731
G01 X6.4391 Y16.6547
G01 X6.4361 Y16.6317
G01 X6.4347 Y16.6078
G01 X6.4347 Y16.5900
G01 X6.4361 Y16.5660
G01 X6.4379 Y16.5503
G01 X6.4418 Y16.5274
G01 X6.4467 Y16.5068
G01 X6.4513 Y16.4908
G01 X6.4583 Y16.4709
G01 X6.4663 Y16.4518
G01 X6.4756 Y16.4328
G01 X6.4881 Y16.4110
G01 X6.4972 Y16.3970
G01 X6.5112 Y16.3780
G00 Z1.0000
G00 X16.9591 Y19.2580
G01 F60.00
G01 Z-0.2500
G01 F60.00
G01 X17.0353 Y19.2580
G01 X17.0663 Y19.1928
G01 X17.1126 Y19.1156
G01 X17.1662 Y19.0433
G01 X17.2227 Y18.9808
G01 X17.2308 Y18.9727
G01 X17.2890 Y18.9199
G01 X17.2978 Y18.9127
G01 X17.3656 Y18.8626
G01 X17.4378 Y18.8191
G01 X17.4453 Y18.8150
G01 X17.5241 Y18.7778
G01 X17.6088 Y18.7475
G01 X17.6961 Y18.7257
G01 X17.7795 Y18.7132
G01 X17.7909 Y18.7120
G01 X17.8750 Y18.7080
G01 X18.2080 Y18.7080
G01 X18.2080 Y18.6421
G01 X17.7238 Y18.6421
G01 X17.5393 Y18.6884
G01 X17.3630 Y18.7719
G01 X17.2064 Y18.8882
G01 X17.0755 Y19.0328
G01 X16.9778 Y19.1960
G01 X16.9591 Y19.2580
G00 Z1.0000
G00 X16.9591 Y19.9921
G01 F60.00
G01 Z-0.2500
G01 F60.00
G01 X16.9778 Y20.0541
G01 X17.0755 Y20.2173
G01 X17.2064 Y20.3619
G01 X17.3630 Y20.4782
G01 X17.5393 Y20.5617
G01 X17.7238 Y20.6080
G01 X18.2080 Y20.6080
G01 X18.2080 Y20.5420
G01 X17.8750 Y20.5420
G01 X17.7909 Y20.5380
G01 X17.7795 Y20.5369
G01 X17.6961 Y20.5244
G01 X17.6088 Y20.5026
G01 X17.5241 Y20.4722
G01 X17.4453 Y20.4351
G01 X17.4378 Y20.4309
G01 X17.3656 Y20.3875
G01 X17.2978 Y20.3374
G01 X17.2890 Y20.3301
G01 X17.2308 Y20.2774
G01 X17.2227 Y20.2693
G01 X17.1662 Y20.2068
G01 X17.1126 Y20.1345
G01 X17.0663 Y20.0573
G01 X17.0353 Y19.9921
G01 X16.9591 Y19.9921
G00 Z1.0000
G00 X18.9421 Y18.7080
G01 F60.00
G01 Z-0.2500
G01 F60.00
G01 X19.2750 Y18.7080
G01 X19.3649 Y18.7125
G01 X19.4539 Y18.7257
G01 X19.5357 Y18.7460
G01 X19.5467 Y18.7493
G01 X19.6206 Y18.7758
G01 X19.6286 Y18.7790
G01 X19.7073 Y18.8163
G01 X19.7845 Y18.8626
G01 X19.8568 Y18.9162
G01 X19.9235 Y18.9766
G01 X19.9839 Y19.0433
G01 X20.0375 Y19.1156
G01 X20.0838 Y19.1928
G01 X20.1148 Y19.2580
G01 X20.1909 Y19.2580
G01 X20.1722 Y19.1960
G01 X20.0746 Y19.0328
G01 X19.9437 Y18.8882
G01 X19.7871 Y18.7719
G01 X19.6108 Y18.6884
G01 X19.4263 Y18.6421
G01 X18.9421 Y18.6421
G01 X18.9421 Y18.7080
G00 Z1.0000
G00 X19.3706 Y20.5369
G01 F60.00
G01 Z-0.2500
G01 F60.00
G01 X19.3592 Y20.5380
G01 X19.2750 Y20.5420
G01 X18.9421 Y20.5420
G01 X18.9421 Y20.6080
G01 X19.4263 Y20.6080
G01 X19.6108 Y20.5617
G01 X19.7871 Y20.4782
G01 X19.9437 Y20.3619
G01 X20.0746 Y20.2173
G01 X20.1722 Y20.0541
G01 X20.1909 Y19.9921
G01 X20.1148 Y19.9921
G01 X20.0838 Y20.0573
G01 X20.0406 Y20.1296
G01 X20.0342 Y20.1392
G01 X19.9839 Y20.2068
G01 X19.9274 Y20.2693
G01 X19.9193 Y20.2774
G01 X19.8568 Y20.3339
G01 X19.7845 Y20.3875
G01 X19.7073 Y20.4338
G01 X19.6312 Y20.4699
G01 X19.6206 Y20.4743
G01 X19.5467 Y20.5008
G01 X19.5357 Y20.5041
G01 X19.4539 Y20.5244
G01 X19.3706 Y20.5369
G00 Z1.0000
G00 X19.4540 Y14.7442
G01 F60.00
G01 Z-0.2500
G01 F60.00
G01 X19.3561 Y14.7442
G01 X19.3561 Y14.6478
G01 X19.3677 Y14.6637
G01 X19.3763 Y14.6745
G01 X19.3889 Y14.6889
G01 X19.3999 Y14.7003
G01 X19.4139 Y14.7133
G01 X19.4259 Y14.7236
G01 X19.4411 Y14.7352
G01 X19.4540 Y14.7442
G01 X19.3561 Y13.6995
G01 X19.3561 Y13.6061
G01 X19.4495 Y13.6061
G01 X19.4336 Y13.6177
G01 X19.4228 Y13.6263
G01 X19.4084 Y13.6389
G01 X19.3999 Y13.6470
G01 X19.3889 Y13.6584
G01 X19.3763 Y13.6728
G01 X19.3677 Y13.6836
G01 X19.3561 Y13.6995
G00 Z1.0000
G00 X17.7940 Y14.6478
G01 F60.00
G01 Z-0.2500
G01 F60.00
G01 X17.7824 Y14.6637
G01 X17.7738 Y14.6745
G01 X17.7612 Y14.6889
G01 X17.7502 Y14.7003
G01 X17.7362 Y14.7133
G01 X17.7242 Y14.7236
G01 X17.7090 Y14.7352
G01 X17.6960 Y14.7442
G01 X17.7940 Y14.7442
G01 X17.7940 Y14.6478
G01 X17.7005 Y13.6061
G01 X17.7165 Y13.6177
G01 X17.7273 Y13.6263
G01 X17.7417 Y13.6389
G01 X17.7502 Y13.6470
G01 X17.7612 Y13.6584
G01 X17.7738 Y13.6728
G01 X17.7824 Y13.6836
G01 X17.7940 Y13.6995
G01 X17.7940 Y13.6061
G01 X17.7005 Y13.6061
G00 Z1.0000
G00 X17.7940 Y11.9505
G01 F60.00
G01 Z-0.2500
G01 F60.00
G01 X17.7824 Y11.9665
G01 X17.7738 Y11.9773
G01 X17.7612 Y11.9917
G01 X17.7502 Y12.0031
G01 X17.7417 Y12.0112
G01 X17.7273 Y12.0238
G01 X17.7165 Y12.0324
G01 X17.7005 Y12.0440
G01 X17.7940 Y12.0440
G01 X17.7940 Y11.9505
G01 X17.6960 Y10.9058
G01 X17.7090 Y10.9149
G01 X17.7242 Y10.9265
G01 X17.7362 Y10.9368
G01 X17.7502 Y10.9498
G01 X17.7612 Y10.9612
G01 X17.7738 Y10.9755
G01 X17.7824 Y10.9863
G01 X17.7940 Y11.0023
G01 X17.7940 Y10.9058
G01 X17.6960 Y10.9058
G00 Z1.0000
G00 X19.3561 Y11.0023
G01 F60.00
G01 Z-0.2500
G01 F60.00
G01 X19.3677 Y10.9863
G01 X19.3763 Y10.9755
G01 X19.3889 Y10.9612
G01 X19.3999 Y10.9498
G01 X19.4139 Y10.9368
G01 X19.4259 Y10.9265
G01 X19.4411 Y10.9149
G01 X19.4540 Y10.9058
G01 X19.3561 Y10.9058
G01 X19.3561 Y11.0023
G01 X19.4495 Y12.0440
G01 X19.4336 Y12.0324
G01 X19.4228 Y12.0238
G01 X19.4084 Y12.0112
G01 X19.3970 Y12.0002
G01 X19.3889 Y11.9917
G01 X19.3763 Y11.9773
G01 X19.3677 Y11.9665
G01 X19.3561 Y11.9505
G01 X19.3561 Y12.0440
G01 X19.4495 Y12.0440
G00 Z1.0000
G00 X19.3706 Y6.9369
G01 F60.00
G01 Z-0.2500
G01 F60.00
G01 X19.3592 Y6.9380
G01 X19.2750 Y6.9420
G01 X18.9421 Y6.9420
G01 X18.9421 Y7.0080
G01 X19.4263 Y7.0080
G01 X19.6108 Y6.9617
G01 X19.7871 Y6.8782
G01 X19.9437 Y6.7619
G01 X20.0746 Y6.6173
G01 X20.1722 Y6.4541
G01 X20.1909 Y6.3921
G01 X20.1148 Y6.3921
G01 X20.0838 Y6.4573
G01 X20.0406 Y6.5296
G01 X20.0342 Y6.5392
G01 X19.9839 Y6.6068
G01 X19.9274 Y6.6693
G01 X19.9193 Y6.6774
G01 X19.8568 Y6.7339
G01 X19.7845 Y6.7875
G01 X19.7073 Y6.8338
G01 X19.6312 Y6.8699
G01 X19.6206 Y6.8743
G01 X19.5467 Y6.9008
G01 X19.5357 Y6.9041
G01 X19.4539 Y6.9244
G01 X19.3706 Y6.9369
G00 Z1.0000
G00 X19.4483 Y5.1247
G01 F60.00
G01 Z-0.2500
G01 F60.00
G01 X19.4595 Y5.1269
G01 X19.5412 Y5.1475
G01 X19.6260 Y5.1778
G01 X19.7073 Y5.2163
G01 X19.7796 Y5.2595
G01 X19.7869 Y5.2642
G01 X19.8568 Y5.3162
G01 X19.9193 Y5.3727
G01 X19.9274 Y5.3808
G01 X19.9839 Y5.4433
G01 X20.0342 Y5.5109
G01 X20.0406 Y5.5204
G01 X20.0838 Y5.5928
G01 X20.1148 Y5.6580
G01 X20.1909 Y5.6580
G01 X20.1722 Y5.5960
G01 X20.0746 Y5.4328
G01 X19.9437 Y5.2882
G01 X19.7871 Y5.1719
G01 X19.6108 Y5.0884
G01 X19.4263 Y5.0421
G01 X18.9421 Y5.0421
G01 X18.9421 Y5.1080
G01 X19.2779 Y5.1081
G01 X19.3649 Y5.1125
G01 X19.4483 Y5.1247
G00 Z1.0000
G00 X16.9591 Y5.6580
G01 F60.00
G01 Z-0.2500
G01 F60.00
G01 X17.0353 Y5.6580
G01 X17.0663 Y5.5928
G01 X17.1126 Y5.5156
G01 X17.1662 Y5.4433
G01 X17.2227 Y5.3808
G01 X17.2308 Y5.3727
G01 X17.2890 Y5.3199
G01 X17.2978 Y5.3127
G01 X17.3656 Y5.2626
G01 X17.4378 Y5.2191
G01 X17.4453 Y5.2150
G01 X17.5241 Y5.1778
G01 X17.6088 Y5.1475
G01 X17.6961 Y5.1257
G01 X17.7795 Y5.1132
G01 X17.7909 Y5.1120
G01 X17.8750 Y5.1080
G01 X18.2080 Y5.1080
G01 X18.2080 Y5.0421
G01 X17.7238 Y5.0421
G01 X17.5393 Y5.0884
G01 X17.3630 Y5.1719
G01 X17.2064 Y5.2882
G01 X17.0755 Y5.4328
G01 X16.9778 Y5.5960
G01 X16.9591 Y5.6580
G00 Z1.0000
G00 X16.9591 Y6.3921
G01 F60.00
G01 Z-0.2500
G01 F60.00
G01 X16.9778 Y6.4541
G01 X17.0755 Y6.6173
G01 X17.2064 Y6.7619
G01 X17.3630 Y6.8782
G01 X17.5393 Y6.9617
G01 X17.7238 Y7.0080
G01 X18.2080 Y7.0080
G01 X18.2080 Y6.9420
G01 X17.8750 Y6.9420
G01 X17.7909 Y6.9380
G01 X17.7795 Y6.9369
G01 X17.6961 Y6.9244
G01 X17.6088 Y6.9026
G01 X17.5241 Y6.8722
G01 X17.4453 Y6.8351
G01 X17.4378 Y6.8309
G01 X17.3656 Y6.7875
G01 X17.2978 Y6.7374
G01 X17.2890 Y6.7301
G01 X17.2308 Y6.6774
G01 X17.2227 Y6.6693
G01 X17.1662 Y6.6068
G01 X17.1126 Y6.5345
G01 X17.0663 Y6.4573
G01 X17.0353 Y6.3921
G01 X16.9591 Y6.3921
G00 Z1.0000
G00 X29.6960 Y6.6058
G01 F60.00
G01 Z-0.2500
G01 F60.00
G01 X29.7090 Y6.6149
G01 X29.7242 Y6.6265
G01 X29.7362 Y6.6368
G01 X29.7502 Y6.6498
G01 X29.7612 Y6.6612
G01 X29.7738 Y6.6755
G01 X29.7824 Y6.6863
G01 X29.7940 Y6.7023
G01 X29.7940 Y6.6058
G01 X29.6960 Y6.6058
G00 Z1.0000
G00 X31.3561 Y6.7023
G01 F60.00
G01 Z-0.2500
G01 F60.00
G01 X31.3677 Y6.6863
G01 X31.3763 Y6.6755
G01 X31.3889 Y6.6612
G01 X31.3999 Y6.6498
G01 X31.4139 Y6.6368
G01 X31.4259 Y6.6265
G01 X31.4411 Y6.6149
G01 X31.4540 Y6.6058
G01 X31.3561 Y6.6058
G01 X31.3561 Y6.7023
G00 Z1.0000
G00 X30.9421 Y21.1419
G01 F60.00
G01 Z-0.2500
G01 F60.00
G01 X30.9421 Y21.2080
G01 X32.0779 Y21.2081
G01 X32.0894 Y21.2089
G01 X32.1007 Y21.2109
G01 X32.1117 Y21.2139
G01 X32.1225 Y21.2181
G01 X32.1327 Y21.2232
G01 X32.1424 Y21.2294
G01 X32.1493 Y21.2346
G01 X32.1578 Y21.2423
G01 X32.1655 Y21.2508
G01 X32.1723 Y21.2600
G01 X32.1782 Y21.2699
G01 X32.1820 Y21.2776
G01 X32.1861 Y21.2883
G01 X32.1892 Y21.2994
G01 X32.1912 Y21.3107
G01 X32.1920 Y21.3222
G01 X32.1920 Y22.4580
G01 X32.2581 Y22.4580
G01 X32.2598 Y21.3343
G01 X32.2554 Y21.2892
G01 X32.2449 Y21.2547
G01 X32.2279 Y21.2229
G01 X32.2050 Y21.1950
G01 X32.1772 Y21.1722
G01 X32.1454 Y21.1552
G01 X32.1109 Y21.1447
G01 X32.0657 Y21.1403
G01 X30.9421 Y21.1419
G00 Z1.0000
G00 X28.8919 Y22.4580
G01 F60.00
G01 Z-0.2500
G01 F60.00
G01 X28.9580 Y22.4580
G01 X28.9581 Y21.3222
G01 X28.9589 Y21.3107
G01 X28.9609 Y21.2994
G01 X28.9639 Y21.2883
G01 X28.9681 Y21.2776
G01 X28.9719 Y21.2699
G01 X28.9778 Y21.2600
G01 X28.9846 Y21.2508
G01 X28.9923 Y21.2423
G01 X28.9986 Y21.2364
G01 X29.0077 Y21.2294
G01 X29.0174 Y21.2232
G01 X29.0276 Y21.2181
G01 X29.0383 Y21.2139
G01 X29.0494 Y21.2109
G01 X29.0607 Y21.2089
G01 X29.0722 Y21.2081
G01 X30.2080 Y21.2080
G01 X30.2080 Y21.1419
G01 X29.0843 Y21.1403
G01 X29.0392 Y21.1447
G01 X29.0047 Y21.1552
G01 X28.9729 Y21.1722
G01 X28.9450 Y21.1950
G01 X28.9222 Y21.2229
G01 X28.9052 Y21.2547
G01 X28.8947 Y21.2892
G01 X28.8903 Y21.3343
G01 X28.8919 Y22.4580
G00 Z1.0000
G00 X28.8919 Y23.1921
G01 F60.00
G01 Z-0.2500
G01 F60.00
G01 X28.8903 Y24.3157
G01 X28.8947 Y24.3609
G01 X28.9052 Y24.3954
G01 X28.9222 Y24.4272
G01 X28.9450 Y24.4550
G01 X28.9729 Y24.4779
G01 X29.0047 Y24.4949
G01 X29.0392 Y24.5054
G01 X29.0843 Y24.5098
G01 X30.2080 Y24.5081
G01 X30.2080 Y24.4420
G01 X29.0722 Y24.4420
G01 X29.0607 Y24.4412
G01 X29.0494 Y24.4392
G01 X29.0383 Y24.4361
G01 X29.0276 Y24.4320
G01 X29.0174 Y24.4268
G01 X29.0077 Y24.4207
G01 X29.0008 Y24.4155
G01 X28.9923 Y24.4078
G01 X28.9846 Y24.3993
G01 X28.9778 Y24.3900
G01 X28.9719 Y24.3802
G01 X28.9669 Y24.3698
G01 X28.9631 Y24.3590
G01 X28.9603 Y24.3479
G01 X28.9586 Y24.3365
G01 X28.9581 Y24.3279
G01 X28.9580 Y23.1921
G01 X28.8919 Y23.1921
G00 Z1.0000
G00 X30.9421 Y24.5081
G01 F60.00
G01 Z-0.2500
G01 F60.00
G01 X32.0657 Y24.5098
G01 X32.1109 Y24.5054
G01 X32.1454 Y24.4949
G01 X32.1772 Y24.4779
G01 X32.2050 Y24.4550
G01 X32.2279 Y24.4272
G01 X32.2449 Y24.3954
G01 X32.2554 Y24.3609
G01 X32.2598 Y24.3157
G01 X32.2581 Y23.1921
G01 X32.1920 Y23.1921
G01 X32.1920 Y24.3279
G01 X32.1912 Y24.3394
G01 X32.1892 Y24.3507
G01 X32.1861 Y24.3617
G01 X32.1820 Y24.3725
G01 X32.1782 Y24.3802
G01 X32.1723 Y24.3900
G01 X32.1655 Y24.3993
G01 X32.1578 Y24.4078
G01 X32.1493 Y24.4155
G01 X32.1400 Y24.4223
G01 X32.1302 Y24.4282
G01 X32.1198 Y24.4331
G01 X32.1090 Y24.4370
G01 X32.0979 Y24.4398
G01 X32.0865 Y24.4415
G01 X32.0779 Y24.4420
G01 X30.9421 Y24.4420
G01 X30.9421 Y24.5081
G00 Z1.0000
G00 X46.3747 Y30.4518
G01 F60.00
G01 Z-0.2500
G01 F60.00
G01 X46.3769 Y30.4405
G01 X46.3975 Y30.3588
G01 X46.4278 Y30.2741
G01 X46.4663 Y30.1928
G01 X46.5095 Y30.1204
G01 X46.5142 Y30.1132
G01 X46.5662 Y30.0433
G01 X46.6227 Y29.9808
G01 X46.6308 Y29.9727
G01 X46.6933 Y29.9162
G01 X46.7609 Y29.8659
G01 X46.7704 Y29.8595
G01 X46.8428 Y29.8163
G01 X46.9080 Y29.7853
G01 X46.9080 Y29.7091
G01 X46.8460 Y29.7278
G01 X46.6828 Y29.8255
G01 X46.5382 Y29.9564
G01 X46.4219 Y30.1130
G01 X46.3384 Y30.2893
G01 X46.2921 Y30.4738
G01 X46.2921 Y30.9580
G01 X46.3580 Y30.9580
G01 X46.3581 Y30.6222
G01 X46.3625 Y30.5352
G01 X46.3747 Y30.4518
G00 Z1.0000
G00 X46.3580 Y31.6921
G01 F60.00
G01 Z-0.2500
G01 F60.00
G01 X46.2921 Y31.6921
G01 X46.2921 Y32.1763
G01 X46.3384 Y32.3608
G01 X46.4219 Y32.5371
G01 X46.5382 Y32.6937
G01 X46.6828 Y32.8246
G01 X46.8460 Y32.9222
G01 X46.9080 Y32.9409
G01 X46.9080 Y32.8648
G01 X46.8428 Y32.8338
G01 X46.7656 Y32.7875
G01 X46.6933 Y32.7339
G01 X46.6266 Y32.6735
G01 X46.5662 Y32.6068
G01 X46.5126 Y32.5345
G01 X46.4663 Y32.4573
G01 X46.4290 Y32.3786
G01 X46.4258 Y32.3706
G01 X46.3993 Y32.2967
G01 X46.3960 Y32.2857
G01 X46.3757 Y32.2039
G01 X46.3625 Y32.1149
G01 X46.3580 Y32.0250
G01 X46.3580 Y31.6921
G00 Z1.0000
G00 X47.6421 Y32.8648
G01 F60.00
G01 Z-0.2500
G01 F60.00
G01 X47.6421 Y32.9409
G01 X47.7041 Y32.9222
G01 X47.8673 Y32.8246
G01 X48.0119 Y32.6937
G01 X48.1282 Y32.5371
G01 X48.2117 Y32.3608
G01 X48.2580 Y32.1763
G01 X48.2580 Y31.6921
G01 X48.1920 Y31.6921
G01 X48.1920 Y32.0250
G01 X48.1880 Y32.1092
G01 X48.1869 Y32.1206
G01 X48.1744 Y32.2039
G01 X48.1526 Y32.2912
G01 X48.1222 Y32.3760
G01 X48.0838 Y32.4573
G01 X48.0375 Y32.5345
G01 X47.9874 Y32.6022
G01 X47.9801 Y32.6111
G01 X47.9274 Y32.6693
G01 X47.9193 Y32.6774
G01 X47.8568 Y32.7339
G01 X47.7845 Y32.7875
G01 X47.7073 Y32.8338
G01 X47.6421 Y32.8648
G00 Z1.0000
G00 X47.6421 Y29.7853
G01 F60.00
G01 Z-0.2500
G01 F60.00
G01 X47.7073 Y29.8163
G01 X47.7845 Y29.8626
G01 X47.8568 Y29.9162
G01 X47.9193 Y29.9727
G01 X47.9274 Y29.9808
G01 X47.9801 Y30.0390
G01 X47.9874 Y30.0478
G01 X48.0375 Y30.1156
G01 X48.0838 Y30.1928
G01 X48.1222 Y30.2741
G01 X48.1526 Y30.3588
G01 X48.1744 Y30.4461
G01 X48.1869 Y30.5295
G01 X48.1880 Y30.5409
G01 X48.1920 Y30.6250
G01 X48.1920 Y30.9580
G01 X48.2580 Y30.9580
G01 X48.2580 Y30.4738
G01 X48.2117 Y30.2893
G01 X48.1282 Y30.1130
G01 X48.0119 Y29.9564
G01 X47.8673 Y29.8255
G01 X47.7041 Y29.7278
G01 X47.6421 Y29.7091
G01 X47.6421 Y29.7853
G00 Z1.0000
G00 X52.2523 Y30.5440
G01 F60.00
G01 Z-0.2500
G01 F60.00
G01 X52.1558 Y30.5440
G01 X52.1558 Y30.4460
G01 X52.1649 Y30.4590
G01 X52.1765 Y30.4742
G01 X52.1868 Y30.4862
G01 X52.1998 Y30.5002
G01 X52.2112 Y30.5112
G01 X52.2255 Y30.5238
G01 X52.2363 Y30.5324
G01 X52.2523 Y30.5440
G01 X53.2940 Y30.4505
G01 X53.2940 Y30.5440
G01 X53.2005 Y30.5440
G01 X53.2165 Y30.5324
G01 X53.2273 Y30.5238
G01 X53.2417 Y30.5112
G01 X53.2502 Y30.5031
G01 X53.2612 Y30.4917
G01 X53.2738 Y30.4773
G01 X53.2824 Y30.4665
G01 X53.2940 Y30.4505
G00 Z1.0000
G00 X52.1558 Y32.2040
G01 F60.00
G01 Z-0.2500
G01 F60.00
G01 X52.1649 Y32.1911
G01 X52.1765 Y32.1759
G01 X52.1868 Y32.1639
G01 X52.1998 Y32.1499
G01 X52.2112 Y32.1389
G01 X52.2255 Y32.1263
G01 X52.2363 Y32.1177
G01 X52.2523 Y32.1061
G01 X52.1558 Y32.1061
G01 X52.1558 Y32.2040
G01 X53.2005 Y32.1061
G01 X53.2165 Y32.1177
G01 X53.2273 Y32.1263
G01 X53.2417 Y32.1389
G01 X53.2531 Y32.1499
G01 X53.2612 Y32.1584
G01 X53.2738 Y32.1728
G01 X53.2824 Y32.1836
G01 X53.2940 Y32.1995
G01 X53.2940 Y32.1061
G01 X53.2005 Y32.1061
G00 Z1.0000
G00 X54.8561 Y32.1995
G01 F60.00
G01 Z-0.2500
G01 F60.00
G01 X54.8561 Y32.1061
G01 X54.9495 Y32.1061
G01 X54.9336 Y32.1177
G01 X54.9228 Y32.1263
G01 X54.9084 Y32.1389
G01 X54.8999 Y32.1470
G01 X54.8889 Y32.1584
G01 X54.8763 Y32.1728
G01 X54.8677 Y32.1836
G01 X54.8561 Y32.1995
G01 X55.8978 Y32.1061
G01 X55.9942 Y32.1061
G01 X55.9942 Y32.2040
G01 X55.9852 Y32.1911
G01 X55.9736 Y32.1759
G01 X55.9633 Y32.1639
G01 X55.9503 Y32.1499
G01 X55.9389 Y32.1389
G01 X55.9245 Y32.1263
G01 X55.9137 Y32.1177
G01 X55.8978 Y32.1061
G00 Z1.0000
G00 X54.9495 Y30.5440
G01 F60.00
G01 Z-0.2500
G01 F60.00
G01 X54.9336 Y30.5324
G01 X54.9228 Y30.5238
G01 X54.9084 Y30.5112
G01 X54.8970 Y30.5002
G01 X54.8889 Y30.4917
G01 X54.8763 Y30.4773
G01 X54.8677 Y30.4665
G01 X54.8561 Y30.4505
G01 X54.8561 Y30.5440
G01 X54.9495 Y30.5440
G01 X55.9942 Y30.4460
G01 X55.9852 Y30.4590
G01 X55.9736 Y30.4742
G01 X55.9633 Y30.4862
G01 X55.9503 Y30.5002
G01 X55.9389 Y30.5112
G01 X55.9245 Y30.5238
G01 X55.9137 Y30.5324
G01 X55.8978 Y30.5440
G01 X55.9942 Y30.5440
G01 X55.9942 Y30.4460
G00 Z1.0000
G00 X59.9747 Y30.4518
G01 F60.00
G01 Z-0.2500
G01 F60.00
G01 X59.9769 Y30.4405
G01 X59.9975 Y30.3588
G01 X60.0278 Y30.2741
G01 X60.0663 Y30.1928
G01 X60.1095 Y30.1204
G01 X60.1142 Y30.1132
G01 X60.1662 Y30.0433
G01 X60.2227 Y29.9808
G01 X60.2308 Y29.9727
G01 X60.2933 Y29.9162
G01 X60.3609 Y29.8659
G01 X60.3704 Y29.8595
G01 X60.4428 Y29.8163
G01 X60.5080 Y29.7853
G01 X60.5080 Y29.7091
G01 X60.4460 Y29.7278
G01 X60.2828 Y29.8255
G01 X60.1382 Y29.9564
G01 X60.0219 Y30.1130
G01 X59.9384 Y30.2893
G01 X59.8921 Y30.4738
G01 X59.8921 Y30.9580
G01 X59.9580 Y30.9580
G01 X59.9581 Y30.6222
G01 X59.9625 Y30.5352
G01 X59.9747 Y30.4518
G00 Z1.0000
G00 X59.9580 Y31.6921
G01 F60.00
G01 Z-0.2500
G01 F60.00
G01 X59.8921 Y31.6921
G01 X59.8921 Y32.1763
G01 X59.9384 Y32.3608
G01 X60.0219 Y32.5371
G01 X60.1382 Y32.6937
G01 X60.2828 Y32.8246
G01 X60.4460 Y32.9222
G01 X60.5080 Y32.9409
G01 X60.5080 Y32.8648
G01 X60.4428 Y32.8338
G01 X60.3656 Y32.7875
G01 X60.2933 Y32.7339
G01 X60.2266 Y32.6735
G01 X60.1662 Y32.6068
G01 X60.1126 Y32.5345
G01 X60.0663 Y32.4573
G01 X60.0290 Y32.3786
G01 X60.0258 Y32.3706
G01 X59.9993 Y32.2967
G01 X59.9960 Y32.2857
G01 X59.9757 Y32.2039
G01 X59.9625 Y32.1149
G01 X59.9580 Y32.0250
G01 X59.9580 Y31.6921
G00 Z1.0000
G00 X61.2421 Y32.8648
G01 F60.00
G01 Z-0.2500
G01 F60.00
G01 X61.2421 Y32.9409
G01 X61.3041 Y32.9222
G01 X61.4673 Y32.8246
G01 X61.6119 Y32.6937
G01 X61.7282 Y32.5371
G01 X61.8117 Y32.3608
G01 X61.8580 Y32.1763
G01 X61.8580 Y31.6921
G01 X61.7920 Y31.6921
G01 X61.7920 Y32.0250
G01 X61.7880 Y32.1092
G01 X61.7869 Y32.1206
G01 X61.7744 Y32.2039
G01 X61.7526 Y32.2912
G01 X61.7222 Y32.3760
G01 X61.6838 Y32.4573
G01 X61.6375 Y32.5345
G01 X61.5874 Y32.6022
G01 X61.5801 Y32.6111
G01 X61.5274 Y32.6693
G01 X61.5193 Y32.6774
G01 X61.4568 Y32.7339
G01 X61.3845 Y32.7875
G01 X61.3073 Y32.8338
G01 X61.2421 Y32.8648
G00 Z1.0000
G00 X61.2421 Y29.7853
G01 F60.00
G01 Z-0.2500
G01 F60.00
G01 X61.3073 Y29.8163
G01 X61.3845 Y29.8626
G01 X61.4568 Y29.9162
G01 X61.5193 Y29.9727
G01 X61.5274 Y29.9808
G01 X61.5801 Y30.0390
G01 X61.5874 Y30.0478
G01 X61.6375 Y30.1156
G01 X61.6838 Y30.1928
G01 X61.7222 Y30.2741
G01 X61.7526 Y30.3588
G01 X61.7744 Y30.4461
G01 X61.7869 Y30.5295
G01 X61.7880 Y30.5409
G01 X61.7920 Y30.6250
G01 X61.7920 Y30.9580
G01 X61.8580 Y30.9580
G01 X61.8580 Y30.4738
G01 X61.8117 Y30.2893
G01 X61.7282 Y30.1130
G01 X61.6119 Y29.9564
G01 X61.4673 Y29.8255
G01 X61.3041 Y29.7278
G01 X61.2421 Y29.7091
G01 X61.2421 Y29.7853
G00 Z1.0000
G00 X68.8919 Y23.1921
G01 F60.00
G01 Z-0.2500
G01 F60.00
G01 X68.8903 Y24.3157
G01 X68.8947 Y24.3609
G01 X68.9052 Y24.3954
G01 X68.9222 Y24.4272
G01 X68.9450 Y24.4550
G01 X68.9729 Y24.4779
G01 X69.0047 Y24.4949
G01 X69.0392 Y24.5054
G01 X69.0843 Y24.5098
G01 X70.2080 Y24.5081
G01 X70.2080 Y24.4420
G01 X69.0722 Y24.4420
G01 X69.0607 Y24.4412
G01 X69.0522 Y24.4398
G01 X69.0411 Y24.4370
G01 X69.0303 Y24.4331
G01 X69.0199 Y24.4282
G01 X69.0100 Y24.4223
G01 X69.0008 Y24.4155
G01 X68.9923 Y24.4078
G01 X68.9846 Y24.3993
G01 X68.9778 Y24.3900
G01 X68.9719 Y24.3802
G01 X68.9669 Y24.3698
G01 X68.9631 Y24.3590
G01 X68.9609 Y24.3507
G01 X68.9589 Y24.3394
G01 X68.9581 Y24.3279
G01 X68.9580 Y23.1921
G01 X68.8919 Y23.1921
G00 Z1.0000
G00 X68.8919 Y22.4580
G01 F60.00
G01 Z-0.2500
G01 F60.00
G01 X68.9580 Y22.4580
G01 X68.9581 Y21.3222
G01 X68.9589 Y21.3107
G01 X68.9609 Y21.2994
G01 X68.9631 Y21.2911
G01 X68.9669 Y21.2803
G01 X68.9719 Y21.2699
G01 X68.9778 Y21.2600
G01 X68.9846 Y21.2508
G01 X68.9923 Y21.2423
G01 X69.0008 Y21.2346
G01 X69.0100 Y21.2278
G01 X69.0199 Y21.2219
G01 X69.0303 Y21.2169
G01 X69.0383 Y21.2139
G01 X69.0494 Y21.2109
G01 X69.0607 Y21.2089
G01 X69.0722 Y21.2081
G01 X70.2080 Y21.2080
G01 X70.2080 Y21.1419
G01 X69.0843 Y21.1403
G01 X69.0392 Y21.1447
G01 X69.0047 Y21.1552
G01 X68.9729 Y21.1722
G01 X68.9450 Y21.1950
G01 X68.9222 Y21.2229
G01 X68.9052 Y21.2547
G01 X68.8947 Y21.2892
G01 X68.8903 Y21.3343
G01 X68.8919 Y22.4580
G00 Z1.0000
G00 X70.9421 Y21.1419
G01 F60.00
G01 Z-0.2500
G01 F60.00
G01 X70.9421 Y21.2080
G01 X72.0779 Y21.2081
G01 X72.0894 Y21.2089
G01 X72.0979 Y21.2103
G01 X72.1090 Y21.2131
G01 X72.1198 Y21.2169
G01 X72.1302 Y21.2219
G01 X72.1400 Y21.2278
G01 X72.1493 Y21.2346
G01 X72.1578 Y21.2423
G01 X72.1655 Y21.2508
G01 X72.1723 Y21.2600
G01 X72.1782 Y21.2699
G01 X72.1831 Y21.2803
G01 X72.1870 Y21.2911
G01 X72.1892 Y21.2994
G01 X72.1912 Y21.3107
G01 X72.1920 Y21.3222
G01 X72.1920 Y22.4580
G01 X72.2581 Y22.4580
G01 X72.2598 Y21.3343
G01 X72.2554 Y21.2892
G01 X72.2449 Y21.2547
G01 X72.2279 Y21.2229
G01 X72.2050 Y21.1950
G01 X72.1772 Y21.1722
G01 X72.1454 Y21.1552
G01 X72.1109 Y21.1447
G01 X72.0657 Y21.1403
G01 X70.9421 Y21.1419
G00 Z1.0000
G00 X70.9421 Y24.5081
G01 F60.00
G01 Z-0.2500
G01 F60.00
G01 X72.0657 Y24.5098
G01 X72.1109 Y24.5054
G01 X72.1454 Y24.4949
G01 X72.1772 Y24.4779
G01 X72.2050 Y24.4550
G01 X72.2279 Y24.4272
G01 X72.2449 Y24.3954
G01 X72.2554 Y24.3609
G01 X72.2598 Y24.3157
G01 X72.2581 Y23.1921
G01 X72.1920 Y23.1921
G01 X72.1920 Y24.3279
G01 X72.1912 Y24.3394
G01 X72.1898 Y24.3479
G01 X72.1870 Y24.3590
G01 X72.1831 Y24.3698
G01 X72.1782 Y24.3802
G01 X72.1723 Y24.3900
G01 X72.1655 Y24.3993
G01 X72.1578 Y24.4078
G01 X72.1493 Y24.4155
G01 X72.1400 Y24.4223
G01 X72.1302 Y24.4282
G01 X72.1198 Y24.4331
G01 X72.1090 Y24.4370
G01 X72.0979 Y24.4398
G01 X72.0894 Y24.4412
G01 X72.0779 Y24.4420
G01 X70.9421 Y24.4420
G01 X70.9421 Y24.5081
G00 Z1.0000
G00 X68.6978 Y5.6061
G01 F60.00
G01 Z-0.2500
G01 F60.00
G01 X68.7137 Y5.6177
G01 X68.7245 Y5.6263
G01 X68.7389 Y5.6389
G01 X68.7503 Y5.6499
G01 X68.7633 Y5.6639
G01 X68.7736 Y5.6759
G01 X68.7852 Y5.6911
G01 X68.7942 Y5.7040
G01 X68.7942 Y5.6061
G01 X68.6978 Y5.6061
G00 Z1.0000
G00 X68.7942 Y3.9460
G01 F60.00
G01 Z-0.2500
G01 F60.00
G01 X68.7852 Y3.9590
G01 X68.7736 Y3.9742
G01 X68.7633 Y3.9862
G01 X68.7503 Y4.0002
G01 X68.7389 Y4.0112
G01 X68.7245 Y4.0238
G01 X68.7137 Y4.0324
G01 X68.6978 Y4.0440
G01 X68.7942 Y4.0440
G01 X68.7942 Y3.9460
G00 Z1.0000
G00 X53.2940 Y47.7705
G01 F60.00
G01 Z-0.2500
G01 F60.00
G01 X53.2824 Y47.7865
G01 X53.2738 Y47.7973
G01 X53.2661 Y47.8062
G01 X53.2531 Y47.8202
G01 X53.2417 Y47.8312
G01 X53.2273 Y47.8438
G01 X53.2165 Y47.8524
G01 X53.2006 Y47.8640
G01 X53.2940 Y47.8640
G01 X53.2940 Y47.7705
G00 Z1.0000
G00 X53.2005 Y49.4261
G01 F60.00
G01 Z-0.2500
G01 F60.00
G01 X53.2165 Y49.4377
G01 X53.2273 Y49.4463
G01 X53.2362 Y49.4540
G01 X53.2502 Y49.4670
G01 X53.2612 Y49.4784
G01 X53.2738 Y49.4928
G01 X53.2824 Y49.5036
G01 X53.2940 Y49.5195
G01 X53.2940 Y49.4261
G01 X53.2005 Y49.4261
G00 Z1.0000
G00 X40.7744 Y50.1101
G01 F60.00
G01 Z-0.2500
G01 F60.00
G01 X40.7591 Y50.0845
G01 X40.7480 Y50.0620
G01 X40.7399 Y50.0429
G01 X40.7309 Y50.0164
G01 X40.7240 Y49.9892
G01 X40.7195 Y49.9636
G01 X40.7171 Y49.9410
G01 X40.7161 Y49.9170
G01 X40.7171 Y49.8890
G01 X40.7195 Y49.8665
G01 X40.7240 Y49.8408
G01 X40.7309 Y49.8137
G01 X40.7399 Y49.7871
G01 X40.7480 Y49.7681
G01 X40.7591 Y49.7455
G01 X40.7744 Y49.7200
G01 X40.7579 Y49.7257
G01 X40.7420 Y49.7303
G01 X40.6571 Y49.7516
G01 X40.6369 Y49.7557
G01 X40.5496 Y49.7687
G01 X40.5339 Y49.7706
G01 X40.4339 Y49.7757
G01 X39.1250 Y49.7758
G01 X39.1113 Y49.7755
G01 X39.0162 Y49.7706
G01 X39.0005 Y49.7687
G01 X38.9160 Y49.7562
G01 X38.8929 Y49.7516
G01 X38.8081 Y49.7303
G01 X38.7921 Y49.7257
G01 X38.7757 Y49.7200
G01 X38.7910 Y49.7455
G01 X38.8021 Y49.7681
G01 X38.8101 Y49.7871
G01 X38.8192 Y49.8137
G01 X38.8252 Y49.8369
G01 X38.8295 Y49.8592
G01 X38.8327 Y49.8850
G01 X38.8339 Y49.9130
G01 X38.8330 Y49.9410
G01 X38.8305 Y49.9636
G01 X38.8261 Y49.9892
G01 X38.8192 Y50.0164
G01 X38.8101 Y50.0429
G01 X38.8021 Y50.0620
G01 X38.7910 Y50.0845
G01 X38.7757 Y50.1101
G01 X38.7921 Y50.1044
G01 X38.8081 Y50.0998
G01 X38.8929 Y50.0785
G01 X38.9132 Y50.0744
G01 X39.0005 Y50.0614
G01 X39.0162 Y50.0595
G01 X39.1161 Y50.0544
G01 X40.4250 Y50.0542
G01 X40.4388 Y50.0546
G01 X40.5339 Y50.0595
G01 X40.5496 Y50.0614
G01 X40.6341 Y50.0739
G01 X40.6571 Y50.0785
G01 X40.7420 Y50.0998
G01 X40.7579 Y50.1044
G01 X40.7744 Y50.1101
G00 Z1.0000
G00 X40.7744 Y52.6501
G01 F60.00
G01 Z-0.2500
G01 F60.00
G01 X40.7591 Y52.6245
G01 X40.7480 Y52.6020
G01 X40.7399 Y52.5829
G01 X40.7309 Y52.5564
G01 X40.7240 Y52.5292
G01 X40.7195 Y52.5036
G01 X40.7171 Y52.4810
G01 X40.7161 Y52.4570
G01 X40.7171 Y52.4290
G01 X40.7195 Y52.4065
G01 X40.7240 Y52.3808
G01 X40.7309 Y52.3537
G01 X40.7399 Y52.3271
G01 X40.7480 Y52.3081
G01 X40.7591 Y52.2855
G01 X40.7744 Y52.2600
G01 X40.7579 Y52.2657
G01 X40.7420 Y52.2703
G01 X40.6571 Y52.2916
G01 X40.6341 Y52.2962
G01 X40.5496 Y52.3087
G01 X40.5339 Y52.3106
G01 X40.4388 Y52.3155
G01 X40.4250 Y52.3158
G01 X39.1161 Y52.3157
G01 X39.0279 Y52.3114
G01 X39.0122 Y52.3102
G01 X38.9132 Y52.2957
G01 X38.8929 Y52.2916
G01 X38.8081 Y52.2703
G01 X38.7921 Y52.2657
G01 X38.7757 Y52.2600
G01 X38.7910 Y52.2855
G01 X38.8021 Y52.3081
G01 X38.8101 Y52.3271
G01 X38.8192 Y52.3537
G01 X38.8252 Y52.3769
G01 X38.8295 Y52.3992
G01 X38.8327 Y52.4250
G01 X38.8339 Y52.4530
G01 X38.8330 Y52.4810
G01 X38.8305 Y52.5036
G01 X38.8261 Y52.5292
G01 X38.8192 Y52.5564
G01 X38.8101 Y52.5829
G01 X38.8021 Y52.6020
G01 X38.7910 Y52.6245
G01 X38.7757 Y52.6501
G01 X38.7921 Y52.6444
G01 X38.8081 Y52.6398
G01 X38.8929 Y52.6185
G01 X38.9132 Y52.6144
G01 X39.0005 Y52.6014
G01 X39.0162 Y52.5995
G01 X39.1161 Y52.5944
G01 X40.4250 Y52.5942
G01 X40.4388 Y52.5946
G01 X40.5339 Y52.5995
G01 X40.5496 Y52.6014
G01 X40.6341 Y52.6139
G01 X40.6571 Y52.6185
G01 X40.7420 Y52.6398
G01 X40.7579 Y52.6444
G01 X40.7744 Y52.6501
G00 Z1.0000
G00 X40.7744 Y55.1901
G01 F60.00
G01 Z-0.2500
G01 F60.00
G01 X40.7591 Y55.1645
G01 X40.7480 Y55.1420
G01 X40.7399 Y55.1229
G01 X40.7309 Y55.0964
G01 X40.7240 Y55.0692
G01 X40.7195 Y55.0436
G01 X40.7171 Y55.0210
G01 X40.7161 Y54.9970
G01 X40.7171 Y54.9690
G01 X40.7195 Y54.9465
G01 X40.7240 Y54.9208
G01 X40.7309 Y54.8937
G01 X40.7399 Y54.8671
G01 X40.7480 Y54.8481
G01 X40.7591 Y54.8255
G01 X40.7744 Y54.8000
G01 X40.7579 Y54.8057
G01 X40.7420 Y54.8103
G01 X40.6571 Y54.8316
G01 X40.6341 Y54.8362
G01 X40.5496 Y54.8487
G01 X40.5339 Y54.8506
G01 X40.4388 Y54.8555
G01 X40.4250 Y54.8558
G01 X39.1161 Y54.8557
G01 X39.0279 Y54.8514
G01 X39.0122 Y54.8502
G01 X38.9132 Y54.8357
G01 X38.8929 Y54.8316
G01 X38.8081 Y54.8103
G01 X38.7921 Y54.8057
G01 X38.7757 Y54.8000
G01 X38.7910 Y54.8255
G01 X38.8021 Y54.8481
G01 X38.8101 Y54.8671
G01 X38.8192 Y54.8937
G01 X38.8252 Y54.9169
G01 X38.8295 Y54.9392
G01 X38.8327 Y54.9650
G01 X38.8339 Y54.9930
G01 X38.8330 Y55.0210
G01 X38.8305 Y55.0436
G01 X38.8261 Y55.0692
G01 X38.8192 Y55.0964
G01 X38.8101 Y55.1229
G01 X38.8021 Y55.1420
G01 X38.7910 Y55.1645
G01 X38.7757 Y55.1901
G01 X38.7921 Y55.1844
G01 X38.8081 Y55.1798
G01 X38.8929 Y55.1585
G01 X38.9132 Y55.1544
G01 X39.0005 Y55.1414
G01 X39.0162 Y55.1395
G01 X39.1161 Y55.1344
G01 X40.4250 Y55.1342
G01 X40.4388 Y55.1346
G01 X40.5339 Y55.1395
G01 X40.5496 Y55.1414
G01 X40.6341 Y55.1539
G01 X40.6571 Y55.1585
G01 X40.7420 Y55.1798
G01 X40.7579 Y55.1844
G01 X40.7744 Y55.1901
G00 Z1.0000
G00 X40.7744 Y57.7301
G01 F60.00
G01 Z-0.2500
G01 F60.00
G01 X40.7591 Y57.7045
G01 X40.7480 Y57.6820
G01 X40.7399 Y57.6629
G01 X40.7309 Y57.6364
G01 X40.7240 Y57.6092
G01 X40.7195 Y57.5836
G01 X40.7171 Y57.5610
G01 X40.7161 Y57.5370
G01 X40.7171 Y57.5090
G01 X40.7195 Y57.4865
G01 X40.7240 Y57.4608
G01 X40.7309 Y57.4337
G01 X40.7399 Y57.4071
G01 X40.7480 Y57.3881
G01 X40.7591 Y57.3655
G01 X40.7744 Y57.3400
G01 X40.7579 Y57.3457
G01 X40.7420 Y57.3503
G01 X40.6571 Y57.3716
G01 X40.6341 Y57.3762
G01 X40.5496 Y57.3887
G01 X40.5339 Y57.3906
G01 X40.4388 Y57.3955
G01 X40.4250 Y57.3958
G01 X39.1161 Y57.3957
G01 X39.0279 Y57.3914
G01 X39.0122 Y57.3902
G01 X38.9132 Y57.3757
G01 X38.8929 Y57.3716
G01 X38.8081 Y57.3503
G01 X38.7921 Y57.3457
G01 X38.7757 Y57.3400
G01 X38.7910 Y57.3655
G01 X38.8021 Y57.3881
G01 X38.8101 Y57.4071
G01 X38.8192 Y57.4337
G01 X38.8252 Y57.4569
G01 X38.8295 Y57.4792
G01 X38.8327 Y57.5050
G01 X38.8339 Y57.5330
G01 X38.8330 Y57.5610
G01 X38.8305 Y57.5836
G01 X38.8261 Y57.6092
G01 X38.8192 Y57.6364
G01 X38.8101 Y57.6629
G01 X38.8021 Y57.6820
G01 X38.7910 Y57.7045
G01 X38.7757 Y57.7301
G01 X38.7921 Y57.7244
G01 X38.8081 Y57.7198
G01 X38.8929 Y57.6985
G01 X38.9132 Y57.6944
G01 X39.0005 Y57.6814
G01 X39.0162 Y57.6795
G01 X39.1161 Y57.6744
G01 X40.4250 Y57.6742
G01 X40.4388 Y57.6746
G01 X40.5339 Y57.6795
G01 X40.5496 Y57.6814
G01 X40.6341 Y57.6939
G01 X40.6571 Y57.6985
G01 X40.7420 Y57.7198
G01 X40.7579 Y57.7244
G01 X40.7744 Y57.7301
G00 Z1.0000
G00 X40.7744 Y60.2701
G01 F60.00
G01 Z-0.2500
G01 F60.00
G01 X40.7591 Y60.2445
G01 X40.7480 Y60.2220
G01 X40.7399 Y60.2029
G01 X40.7309 Y60.1764
G01 X40.7240 Y60.1492
G01 X40.7195 Y60.1236
G01 X40.7171 Y60.1010
G01 X40.7161 Y60.0770
G01 X40.7171 Y60.0490
G01 X40.7195 Y60.0265
G01 X40.7240 Y60.0008
G01 X40.7309 Y59.9737
G01 X40.7399 Y59.9471
G01 X40.7480 Y59.9281
G01 X40.7591 Y59.9055
G01 X40.7744 Y59.8800
G01 X40.7579 Y59.8857
G01 X40.7420 Y59.8903
G01 X40.6571 Y59.9116
G01 X40.6341 Y59.9162
G01 X40.5496 Y59.9287
G01 X40.5339 Y59.9306
G01 X40.4388 Y59.9355
G01 X40.4250 Y59.9358
G01 X39.1161 Y59.9357
G01 X39.0279 Y59.9314
G01 X39.0122 Y59.9302
G01 X38.9132 Y59.9157
G01 X38.8929 Y59.9116
G01 X38.8081 Y59.8903
G01 X38.7921 Y59.8857
G01 X38.7757 Y59.8800
G01 X38.7910 Y59.9055
G01 X38.8021 Y59.9281
G01 X38.8101 Y59.9471
G01 X38.8192 Y59.9737
G01 X38.8252 Y59.9969
G01 X38.8295 Y60.0192
G01 X38.8327 Y60.0450
G01 X38.8339 Y60.0730
G01 X38.8330 Y60.1010
G01 X38.8305 Y60.1236
G01 X38.8261 Y60.1492
G01 X38.8192 Y60.1764
G01 X38.8101 Y60.2029
G01 X38.8021 Y60.2220
G01 X38.7910 Y60.2445
G01 X38.7757 Y60.2701
G01 X38.7921 Y60.2644
G01 X38.8081 Y60.2598
G01 X38.8929 Y60.2385
G01 X38.9132 Y60.2344
G01 X39.0005 Y60.2214
G01 X39.0162 Y60.2195
G01 X39.1161 Y60.2144
G01 X40.4250 Y60.2142
G01 X40.4388 Y60.2146
G01 X40.5339 Y60.2195
G01 X40.5496 Y60.2214
G01 X40.6341 Y60.2339
G01 X40.6571 Y60.2385
G01 X40.7420 Y60.2598
G01 X40.7579 Y60.2644
G01 X40.7744 Y60.2701
G00 Z1.0000
G00 X40.7744 Y62.8101
G01 F60.00
G01 Z-0.2500
G01 F60.00
G01 X40.7591 Y62.7845
G01 X40.7480 Y62.7620
G01 X40.7399 Y62.7429
G01 X40.7309 Y62.7164
G01 X40.7240 Y62.6892
G01 X40.7195 Y62.6636
G01 X40.7171 Y62.6410
G01 X40.7161 Y62.6170
G01 X40.7171 Y62.5890
G01 X40.7195 Y62.5665
G01 X40.7240 Y62.5408
G01 X40.7309 Y62.5137
G01 X40.7399 Y62.4871
G01 X40.7480 Y62.4681
G01 X40.7591 Y62.4455
G01 X40.7744 Y62.4200
G01 X40.7579 Y62.4257
G01 X40.7420 Y62.4303
G01 X40.6571 Y62.4516
G01 X40.6341 Y62.4562
G01 X40.5496 Y62.4687
G01 X40.5339 Y62.4706
G01 X40.4388 Y62.4755
G01 X40.4250 Y62.4758
G01 X39.1161 Y62.4757
G01 X39.0279 Y62.4714
G01 X39.0122 Y62.4702
G01 X38.9132 Y62.4557
G01 X38.8929 Y62.4516
G01 X38.8081 Y62.4303
G01 X38.7921 Y62.4257
G01 X38.7757 Y62.4200
G01 X38.7910 Y62.4455
G01 X38.8021 Y62.4681
G01 X38.8101 Y62.4871
G01 X38.8192 Y62.5137
G01 X38.8252 Y62.5369
G01 X38.8295 Y62.5592
G01 X38.8327 Y62.5850
G01 X38.8339 Y62.6130
G01 X38.8330 Y62.6410
G01 X38.8305 Y62.6636
G01 X38.8261 Y62.6892
G01 X38.8192 Y62.7164
G01 X38.8101 Y62.7429
G01 X38.8021 Y62.7620
G01 X38.7910 Y62.7845
G01 X38.7757 Y62.8101
G01 X38.7921 Y62.8044
G01 X38.8081 Y62.7998
G01 X38.8929 Y62.7785
G01 X38.9132 Y62.7744
G01 X39.0005 Y62.7614
G01 X39.0162 Y62.7595
G01 X39.1161 Y62.7544
G01 X40.4250 Y62.7542
G01 X40.4388 Y62.7546
G01 X40.5339 Y62.7595
G01 X40.5496 Y62.7614
G01 X40.6341 Y62.7739
G01 X40.6571 Y62.7785
G01 X40.7420 Y62.7998
G01 X40.7579 Y62.8044
G01 X40.7744 Y62.8101
G00 Z1.0000
G00 X40.7744 Y65.3501
G01 F60.00
G01 Z-0.2500
G01 F60.00
G01 X40.7591 Y65.3245
G01 X40.7480 Y65.3020
G01 X40.7399 Y65.2829
G01 X40.7309 Y65.2564
G01 X40.7248 Y65.2332
G01 X40.7206 Y65.2109
G01 X40.7174 Y65.1851
G01 X40.7161 Y65.1570
G01 X40.7171 Y65.1290
G01 X40.7195 Y65.1065
G01 X40.7240 Y65.0808
G01 X40.7309 Y65.0537
G01 X40.7399 Y65.0271
G01 X40.7480 Y65.0081
G01 X40.7591 Y64.9855
G01 X40.7744 Y64.9600
G01 X40.7579 Y64.9657
G01 X40.7420 Y64.9703
G01 X40.6571 Y64.9916
G01 X40.6341 Y64.9962
G01 X40.5496 Y65.0087
G01 X40.5339 Y65.0106
G01 X40.4388 Y65.0155
G01 X40.4250 Y65.0158
G01 X39.1161 Y65.0157
G01 X39.0279 Y65.0114
G01 X39.0122 Y65.0102
G01 X38.9132 Y64.9957
G01 X38.8929 Y64.9916
G01 X38.8081 Y64.9703
G01 X38.7921 Y64.9657
G01 X38.7757 Y64.9600
G01 X38.7910 Y64.9855
G01 X38.8021 Y65.0081
G01 X38.8101 Y65.0271
G01 X38.8192 Y65.0537
G01 X38.8252 Y65.0769
G01 X38.8295 Y65.0992
G01 X38.8327 Y65.1250
G01 X38.8339 Y65.1530
G01 X38.8330 Y65.1810
G01 X38.8305 Y65.2036
G01 X38.8261 Y65.2292
G01 X38.8192 Y65.2564
G01 X38.8101 Y65.2829
G01 X38.8021 Y65.3020
G01 X38.7910 Y65.3245
G01 X38.7757 Y65.3501
G01 X38.7921 Y65.3444
G01 X38.8081 Y65.3398
G01 X38.8929 Y65.3185
G01 X38.9132 Y65.3144
G01 X39.0005 Y65.3014
G01 X39.0162 Y65.2995
G01 X39.1161 Y65.2944
G01 X40.4250 Y65.2942
G01 X40.4388 Y65.2946
G01 X40.5339 Y65.2995
G01 X40.5496 Y65.3014
G01 X40.6341 Y65.3139
G01 X40.6571 Y65.3185
G01 X40.7420 Y65.3398
G01 X40.7579 Y65.3444
G01 X40.7744 Y65.3501
G00 Z1.0000
G00 X40.6762 Y67.6950
G01 F60.00
G01 Z-0.2500
G01 F60.00
G01 X40.6989 Y67.7001
G01 X40.7808 Y67.7206
G01 X40.7970 Y67.7250
G01 X40.8187 Y67.7320
G01 X40.9029 Y67.7622
G01 X40.9223 Y67.7698
G01 X40.9404 Y67.7778
G01 X41.0220 Y67.8165
G01 X41.0371 Y67.8243
G01 X41.0517 Y67.8325
G01 X41.1267 Y67.8775
G01 X41.1459 Y67.8897
G01 X41.1613 Y67.9006
G01 X41.2291 Y67.9509
G01 X41.2448 Y67.9630
G01 X41.2628 Y67.9786
G01 X41.3254 Y68.0352
G01 X41.3376 Y68.0468
G01 X41.3535 Y68.0632
G01 X41.4115 Y68.1272
G01 X41.4245 Y68.1422
G01 X41.4392 Y68.1610
G01 X41.4929 Y68.2335
G01 X41.5026 Y68.2475
G01 X41.5110 Y68.2608
G01 X41.5565 Y68.3366
G01 X41.5677 Y68.3565
G01 X41.5762 Y68.3734
G01 X41.6122 Y68.4497
G01 X41.6203 Y68.4678
G01 X41.6289 Y68.4900
G01 X41.6574 Y68.5695
G01 X41.6627 Y68.5854
G01 X41.6690 Y68.6073
G01 X41.6900 Y68.6912
G01 X41.6944 Y68.7105
G01 X41.6980 Y68.7310
G01 X41.7112 Y68.8195
G01 X41.7142 Y68.8470
G01 X41.7191 Y68.9442
G01 X41.7196 Y68.9670
G01 X41.7191 Y68.9858
G01 X41.7150 Y69.0702
G01 X41.7132 Y69.0939
G01 X41.7107 Y69.1136
G01 X41.6983 Y69.1971
G01 X41.6951 Y69.2156
G01 X41.6900 Y69.2389
G01 X41.6695 Y69.3208
G01 X41.6645 Y69.3389
G01 X41.6570 Y69.3616
G01 X41.6286 Y69.4410
G01 X41.6218 Y69.4586
G01 X41.6122 Y69.4804
G01 X41.5762 Y69.5567
G01 X41.5686 Y69.5718
G01 X41.5565 Y69.5934
G01 X41.5126 Y69.6667
G01 X41.5037 Y69.6809
G01 X41.4907 Y69.6997
G01 X41.4386 Y69.7699
G01 X41.4283 Y69.7832
G01 X41.4161 Y69.7977
G01 X41.3555 Y69.8647
G01 X41.3390 Y69.8819
G01 X41.3247 Y69.8955
G01 X41.2606 Y69.9535
G01 X41.2410 Y69.9701
G01 X41.1589 Y70.0313
G01 X41.1426 Y70.0426
G01 X41.1284 Y70.0516
G01 X41.0517 Y70.0976
G01 X41.0318 Y70.1086
G01 X41.0167 Y70.1162
G01 X40.9395 Y70.1527
G01 X40.9167 Y70.1626
G01 X40.9010 Y70.1686
G01 X40.8216 Y70.1970
G01 X40.7989 Y70.2045
G01 X40.7808 Y70.2095
G01 X40.6989 Y70.2300
G01 X40.6762 Y70.2350
G01 X40.6989 Y70.2401
G01 X40.7808 Y70.2606
G01 X40.7970 Y70.2650
G01 X40.8187 Y70.2720
G01 X40.9001 Y70.3011
G01 X40.9186 Y70.3082
G01 X40.9377 Y70.3166
G01 X41.0185 Y70.3548
G01 X41.0388 Y70.3652
G01 X41.0534 Y70.3735
G01 X41.1258 Y70.4169
G01 X41.1426 Y70.4275
G01 X41.1613 Y70.4406
G01 X41.2323 Y70.4933
G01 X41.2448 Y70.5030
G01 X41.2577 Y70.5140
G01 X41.3247 Y70.5746
G01 X41.3390 Y70.5882
G01 X41.3548 Y70.6047
G01 X41.4135 Y70.6695
G01 X41.4283 Y70.6869
G01 X41.4386 Y70.7001
G01 X41.4889 Y70.7680
G01 X41.5026 Y70.7875
G01 X41.5126 Y70.8034
G01 X41.5560 Y70.8758
G01 X41.5658 Y70.8930
G01 X41.5762 Y70.9134
G01 X41.6127 Y70.9906
G01 X41.6218 Y71.0115
G01 X41.6289 Y71.0300
G01 X41.6593 Y71.1150
G01 X41.6645 Y71.1312
G01 X41.6687 Y71.1464
G01 X41.6902 Y71.2322
G01 X41.6951 Y71.2544
G01 X41.6985 Y71.2740
G01 X41.7127 Y71.3713
G01 X41.7150 Y71.3989
G01 X41.7191 Y71.4842
G01 X41.7196 Y71.5030
G01 X41.7191 Y71.5269
G01 X41.7150 Y71.6112
G01 X41.7138 Y71.6279
G01 X41.7109 Y71.6526
G01 X41.6983 Y71.7371
G01 X41.6955 Y71.7537
G01 X41.6907 Y71.7760
G01 X41.6695 Y71.8608
G01 X41.6650 Y71.8770
G01 X41.6593 Y71.8951
G01 X41.6237 Y71.9941
G01 X41.6135 Y72.0177
G01 X41.5766 Y72.0958
G01 X41.5658 Y72.1171
G01 X41.5560 Y72.1343
G01 X41.5095 Y72.2117
G01 X41.4992 Y72.2276
G01 X41.4889 Y72.2421
G01 X41.4374 Y72.3115
G01 X41.4232 Y72.3294
G01 X41.4122 Y72.3421
G01 X41.3548 Y72.4054
G01 X41.3376 Y72.4233
G01 X41.3254 Y72.4348
G01 X41.2628 Y72.4915
G01 X41.2448 Y72.5070
G01 X41.2299 Y72.5186
G01 X41.1621 Y72.5689
G01 X41.1409 Y72.5837
G01 X41.1267 Y72.5926
G01 X41.0543 Y72.6360
G01 X41.0335 Y72.6477
G01 X41.0167 Y72.6562
G01 X40.9404 Y72.6922
G01 X40.9186 Y72.7018
G01 X40.9010 Y72.7086
G01 X40.8216 Y72.7370
G01 X40.7989 Y72.7445
G01 X40.7808 Y72.7495
G01 X40.6989 Y72.7700
G01 X40.6762 Y72.7750
G01 X40.6979 Y72.7799
G01 X40.7837 Y72.8014
G01 X40.8028 Y72.8068
G01 X40.8216 Y72.8130
G01 X40.9029 Y72.8422
G01 X40.9242 Y72.8505
G01 X40.9395 Y72.8574
G01 X41.0158 Y72.8935
G01 X41.0335 Y72.9024
G01 X41.0534 Y72.9135
G01 X41.1293 Y72.9590
G01 X41.1459 Y72.9697
G01 X41.1621 Y72.9812
G01 X41.2315 Y73.0327
G01 X41.2494 Y73.0469
G01 X41.2621 Y73.0579
G01 X41.3247 Y73.1146
G01 X41.3390 Y73.1282
G01 X41.3548 Y73.1447
G01 X41.4142 Y73.2102
G01 X41.4270 Y73.2253
G01 X41.4392 Y73.2410
G01 X41.4907 Y73.3104
G01 X41.5037 Y73.3292
G01 X41.5126 Y73.3434
G01 X41.5560 Y73.4158
G01 X41.5658 Y73.4330
G01 X41.5762 Y73.4534
G01 X41.6139 Y73.5333
G01 X41.6218 Y73.5515
G01 X41.6286 Y73.5690
G01 X41.6574 Y73.6495
G01 X41.6645 Y73.6712
G01 X41.6697 Y73.6903
G01 X41.6929 Y73.7838
G01 X41.6983 Y73.8130
G01 X41.7109 Y73.8975
G01 X41.7132 Y73.9161
G01 X41.7150 Y73.9399
G01 X41.7191 Y74.0242
G01 X41.7196 Y74.0430
G01 X41.7191 Y74.0669
G01 X41.7150 Y74.1512
G01 X41.7136 Y74.1699
G01 X41.7107 Y74.1936
G01 X41.6983 Y74.2771
G01 X41.6951 Y74.2956
G01 X41.6900 Y74.3189
G01 X41.6695 Y74.4008
G01 X41.6645 Y74.4189
G01 X41.6570 Y74.4416
G01 X41.6286 Y74.5210
G01 X41.6218 Y74.5386
G01 X41.6122 Y74.5604
G01 X41.5762 Y74.6367
G01 X41.5677 Y74.6535
G01 X41.5560 Y74.6743
G01 X41.5126 Y74.7467
G01 X41.5026 Y74.7626
G01 X41.4889 Y74.7821
G01 X41.4386 Y74.8499
G01 X41.4270 Y74.8648
G01 X41.4115 Y74.8828
G01 X41.3548 Y74.9454
G01 X41.3419 Y74.9590
G01 X41.3247 Y74.9755
G01 X41.2621 Y75.0322
G01 X41.2479 Y75.0445
G01 X41.2291 Y75.0592
G01 X41.1613 Y75.1095
G01 X41.1459 Y75.1203
G01 X41.1258 Y75.1331
G01 X41.0534 Y75.1765
G01 X41.0371 Y75.1858
G01 X41.0158 Y75.1966
G01 X40.9395 Y75.2327
G01 X40.9223 Y75.2403
G01 X40.9001 Y75.2489
G01 X40.8206 Y75.2774
G01 X40.8028 Y75.2833
G01 X40.7798 Y75.2897
G01 X40.6979 Y75.3102
G01 X40.6762 Y75.3150
G01 X40.6979 Y75.3199
G01 X40.7837 Y75.3414
G01 X40.8028 Y75.3468
G01 X40.8206 Y75.3527
G01 X40.9010 Y75.3815
G01 X40.9223 Y75.3898
G01 X40.9404 Y75.3978
G01 X41.0292 Y75.4401
G01 X41.0517 Y75.4525
G01 X41.1267 Y75.4975
G01 X41.1409 Y75.5064
G01 X41.1565 Y75.5171
G01 X41.2291 Y75.5709
G01 X41.2432 Y75.5818
G01 X41.2606 Y75.5965
G01 X41.3082 Y75.6397
G01 X43.9237 Y75.6402
G01 X44.9076 Y74.6562
G01 X44.9205 Y74.6439
G01 X44.9591 Y74.6089
G01 X44.9772 Y74.5934
G01 X44.9920 Y74.5818
G01 X45.0378 Y74.5479
G01 X45.0535 Y74.5372
G01 X45.0685 Y74.5277
G01 X45.1141 Y74.5005
G01 X45.1332 Y74.4899
G01 X45.1491 Y74.4819
G01 X45.1944 Y74.4605
G01 X45.2098 Y74.4537
G01 X45.2300 Y74.4456
G01 X45.2829 Y74.4267
G01 X45.2988 Y74.4215
G01 X45.3179 Y74.4161
G01 X45.3723 Y74.4024
G01 X45.3927 Y74.3980
G01 X45.4112 Y74.3948
G01 X45.4676 Y74.3865
G01 X45.4844 Y74.3846
G01 X45.5012 Y74.3833
G01 X45.5562 Y74.3806
G01 X45.5750 Y74.3802
G01 X50.9631 Y74.3802
G01 X50.9992 Y74.3404
G01 X51.0160 Y74.3234
G01 X51.0880 Y74.2579
G01 X51.1091 Y74.2400
G01 X51.1880 Y74.1812
G01 X51.2041 Y74.1697
G01 X51.2234 Y74.1575
G01 X51.3035 Y74.1096
G01 X51.3165 Y74.1024
G01 X51.3306 Y74.0952
G01 X51.4106 Y74.0574
G01 X51.4278 Y74.0498
G01 X51.4490 Y74.0415
G01 X51.5314 Y74.0120
G01 X51.5531 Y74.0050
G01 X51.5693 Y74.0006
G01 X51.6512 Y73.9801
G01 X51.6739 Y73.9750
G01 X51.6522 Y73.9702
G01 X51.5703 Y73.9497
G01 X51.5473 Y73.9433
G01 X51.5295 Y73.9374
G01 X51.4500 Y73.9089
G01 X51.4278 Y73.9003
G01 X51.4106 Y73.8927
G01 X51.3343 Y73.8566
G01 X51.3130 Y73.8458
G01 X51.2966 Y73.8365
G01 X51.2242 Y73.7931
G01 X51.2041 Y73.7803
G01 X51.1888 Y73.7695
G01 X51.1210 Y73.7192
G01 X51.1022 Y73.7045
G01 X51.0880 Y73.6922
G01 X51.0254 Y73.6355
G01 X51.0082 Y73.6190
G01 X50.9952 Y73.6054
G01 X50.9386 Y73.5428
G01 X50.9230 Y73.5248
G01 X50.9115 Y73.5099
G01 X50.8612 Y73.4421
G01 X50.8464 Y73.4209
G01 X50.8375 Y73.4067
G01 X50.7941 Y73.3343
G01 X50.7824 Y73.3135
G01 X50.7739 Y73.2967
G01 X50.7378 Y73.2204
G01 X50.7282 Y73.1986
G01 X50.7215 Y73.1810
G01 X50.6930 Y73.1016
G01 X50.6856 Y73.0789
G01 X50.6806 Y73.0608
G01 X50.6601 Y72.9789
G01 X50.6546 Y72.9537
G01 X50.6517 Y72.9371
G01 X50.6393 Y72.8536
G01 X50.6365 Y72.8299
G01 X50.6351 Y72.8112
G01 X50.6310 Y72.7269
G01 X50.6305 Y72.7010
G01 X50.6309 Y72.6842
G01 X50.6351 Y72.5989
G01 X50.6371 Y72.5741
G01 X50.6392 Y72.5575
G01 X50.6522 Y72.4700
G01 X50.6557 Y72.4505
G01 X50.6594 Y72.4341
G01 X50.6806 Y72.3493
G01 X50.6868 Y72.3273
G01 X50.6927 Y72.3095
G01 X50.7222 Y72.2271
G01 X50.7298 Y72.2078
G01 X50.7366 Y72.1924
G01 X50.7748 Y72.1115
G01 X50.7852 Y72.0912
G01 X50.7935 Y72.0766
G01 X50.8369 Y72.0042
G01 X50.8475 Y71.9875
G01 X50.8606 Y71.9688
G01 X50.9115 Y71.9001
G01 X50.9230 Y71.8853
G01 X50.9365 Y71.8695
G01 X50.9966 Y71.8032
G01 X51.0125 Y71.7868
G01 X51.0247 Y71.7752
G01 X51.0872 Y71.7186
G01 X51.1022 Y71.7056
G01 X51.1201 Y71.6915
G01 X51.1880 Y71.6412
G01 X51.2041 Y71.6297
G01 X51.2208 Y71.6190
G01 X51.2966 Y71.5735
G01 X51.3165 Y71.5624
G01 X51.3343 Y71.5535
G01 X51.4106 Y71.5174
G01 X51.4259 Y71.5105
G01 X51.4471 Y71.5022
G01 X51.5285 Y71.4730
G01 X51.5473 Y71.4668
G01 X51.5664 Y71.4614
G01 X51.6522 Y71.4399
G01 X51.6739 Y71.4350
G01 X51.6512 Y71.4300
G01 X51.5693 Y71.4095
G01 X51.5512 Y71.4045
G01 X51.5295 Y71.3974
G01 X51.4379 Y71.3644
G01 X51.4124 Y71.3535
G01 X51.3227 Y71.3109
G01 X51.3017 Y71.2995
G01 X51.2527 Y71.2702
G01 X46.1681 Y71.2698
G01 X46.1032 Y71.2669
G01 X46.0804 Y71.2651
G01 X46.0608 Y71.2627
G01 X46.0092 Y71.2550
G01 X45.9927 Y71.2521
G01 X45.9694 Y71.2470
G01 X45.9189 Y71.2343
G01 X45.9027 Y71.2298
G01 X45.8810 Y71.2227
G01 X45.8217 Y71.2013
G01 X45.7962 Y71.1904
G01 X45.7482 Y71.1677
G01 X45.7332 Y71.1602
G01 X45.7115 Y71.1481
G01 X45.6677 Y71.1218
G01 X45.6535 Y71.1129
G01 X45.6331 Y71.0987
G01 X45.5904 Y71.0670
G01 X45.5772 Y71.0567
G01 X45.5599 Y71.0418
G01 X45.5118 Y70.9980
G01 X41.8837 Y67.3699
G01 X41.3088 Y67.3699
G01 X41.2606 Y67.4135
G01 X41.2432 Y67.4283
G01 X41.2291 Y67.4392
G01 X41.1565 Y67.4929
G01 X41.1409 Y67.5037
G01 X41.1267 Y67.5126
G01 X41.0517 Y67.5576
G01 X41.0292 Y67.5700
G01 X40.9404 Y67.6122
G01 X40.9223 Y67.6203
G01 X40.9010 Y67.6286
G01 X40.8206 Y67.6574
G01 X40.8028 Y67.6633
G01 X40.7837 Y67.6687
G01 X40.6979 Y67.6902
G01 X40.6762 Y67.6950
G01 X41.1410 Y67.6950
G01 X41.2135 Y67.7385
G01 X41.2369 Y67.7535
G01 X41.2581 Y67.7684
G01 X41.3279 Y67.8202
G01 X41.3463 Y67.8345
G01 X41.3654 Y67.8506
G01 X41.4434 Y67.9213
G01 X41.4584 Y67.9359
G01 X41.4731 Y67.9513
G01 X41.5332 Y68.0176
G01 X41.5467 Y68.0330
G01 X41.5674 Y68.0590
G01 X41.6214 Y68.1316
G01 X41.6348 Y68.1506
G01 X41.6474 Y68.1699
G01 X41.6965 Y68.2516
G01 X41.7103 Y68.2758
G01 X41.7240 Y68.3029
G01 X41.7622 Y68.3837
G01 X41.7747 Y68.4125
G01 X41.7827 Y68.4334
G01 X41.8118 Y68.5148
G01 X41.8224 Y68.5475
G01 X41.8282 Y68.5690
G01 X41.8490 Y68.6519
G01 X41.8560 Y68.6835
G01 X41.8602 Y68.7080
G01 X41.8728 Y68.7929
G01 X41.8769 Y68.8271
G01 X41.8786 Y68.8519
G01 X41.8828 Y68.9372
G01 X41.8834 Y68.9600
G01 X41.8829 Y68.9904
G01 X41.8786 Y69.0782
G01 X41.8769 Y69.1030
G01 X41.8740 Y69.1288
G01 X41.8602 Y69.2221
G01 X41.8558 Y69.2476
G01 X41.8498 Y69.2748
G01 X41.8271 Y69.3654
G01 X41.8197 Y69.3913
G01 X41.8114 Y69.4163
G01 X41.7816 Y69.4995
G01 X41.7705 Y69.5278
G01 X41.7603 Y69.5504
G01 X41.7240 Y69.6272
G01 X41.7140 Y69.6472
G01 X41.6988 Y69.6746
G01 X41.6508 Y69.7548
G01 X41.6365 Y69.7769
G01 X41.6217 Y69.7981
G01 X41.5684 Y69.8699
G01 X41.5505 Y69.8926
G01 X41.5332 Y69.9125
G01 X41.4759 Y69.9758
G01 X41.4625 Y69.9899
G01 X41.4387 Y70.0131
G01 X41.3714 Y70.0742
G01 X41.3526 Y70.0905
G01 X41.3338 Y70.1054
G01 X41.2581 Y70.1617
G01 X41.2369 Y70.1765
G01 X41.2135 Y70.1915
G01 X41.1410 Y70.2350
G01 X41.2135 Y70.2785
G01 X41.2369 Y70.2935
G01 X41.2581 Y70.3084
G01 X41.3311 Y70.3626
G01 X41.3518 Y70.3790
G01 X41.3687 Y70.3935
G01 X41.4376 Y70.4559
G01 X41.4577 Y70.4752
G01 X41.4755 Y70.4939
G01 X41.5369 Y70.5617
G01 X41.5537 Y70.5814
G01 X41.5681 Y70.5998
G01 X41.6217 Y70.6720
G01 X41.6365 Y70.6931
G01 X41.6515 Y70.7166
G01 X41.6968 Y70.7920
G01 X41.7088 Y70.8131
G01 X41.7208 Y70.8362
G01 X41.7610 Y70.9210
G01 X41.7713 Y70.9442
G01 X41.7818 Y70.9710
G01 X41.8119 Y71.0552
G01 X41.8192 Y71.0769
G01 X41.8256 Y71.0989
G01 X41.8512 Y71.2010
G01 X41.8564 Y71.2255
G01 X41.8604 Y71.2494
G01 X41.8733 Y71.3364
G01 X41.8766 Y71.3641
G01 X41.8785 Y71.3899
G01 X41.8828 Y71.4772
G01 X41.8834 Y71.5020
G01 X41.8830 Y71.5289
G01 X41.8784 Y71.6222
G01 X41.8762 Y71.6500
G01 X41.8730 Y71.6756
G01 X41.8591 Y71.7689
G01 X41.8548 Y71.7925
G01 X41.8492 Y71.8172
G01 X41.8276 Y71.9035
G01 X41.8200 Y71.9303
G01 X41.8119 Y71.9548
G01 X41.7798 Y72.0446
G01 X41.7705 Y72.0678
G01 X41.7603 Y72.0904
G01 X41.7208 Y72.1739
G01 X41.7122 Y72.1907
G01 X41.7025 Y72.2082
G01 X41.6529 Y72.2913
G01 X41.6388 Y72.3136
G01 X41.6228 Y72.3365
G01 X41.5696 Y72.4083
G01 X41.5543 Y72.4279
G01 X41.5388 Y72.4462
G01 X41.4759 Y72.5158
G01 X41.4584 Y72.5341
G01 X41.4376 Y72.5542
G01 X41.3695 Y72.6159
G01 X41.3518 Y72.6311
G01 X41.3315 Y72.6471
G01 X41.2581 Y72.7017
G01 X41.2369 Y72.7165
G01 X41.2135 Y72.7315
G01 X41.1410 Y72.7750
G01 X41.2135 Y72.8185
G01 X41.2369 Y72.8335
G01 X41.2581 Y72.8484
G01 X41.3279 Y72.9002
G01 X41.3463 Y72.9145
G01 X41.3654 Y72.9306
G01 X41.4412 Y72.9992
G01 X41.4577 Y73.0152
G01 X41.4731 Y73.0313
G01 X41.5342 Y73.0987
G01 X41.5505 Y73.1175
G01 X41.5684 Y73.1402
G01 X41.6208 Y73.2108
G01 X41.6321 Y73.2266
G01 X41.6425 Y73.2422
G01 X41.6534 Y73.2596
G01 X41.7010 Y73.3392
G01 X41.7126 Y73.3602
G01 X41.7238 Y73.3824
G01 X41.7620 Y73.4633
G01 X41.7732 Y73.4888
G01 X41.7825 Y73.5129
G01 X41.8119 Y73.5952
G01 X41.8197 Y73.6188
G01 X41.8264 Y73.6418
G01 X41.8492 Y73.7328
G01 X41.8544 Y73.7556
G01 X41.8598 Y73.7855
G01 X41.8728 Y73.8725
G01 X41.8754 Y73.8922
G01 X41.8772 Y73.9110
G01 X41.8785 Y73.9304
G01 X41.8827 Y74.0157
G01 X41.8834 Y74.0420
G01 X41.8829 Y74.0709
G01 X41.8785 Y74.1597
G01 X41.8767 Y74.1850
G01 X41.8736 Y74.2117
G01 X41.8599 Y74.3041
G01 X41.8550 Y74.3315
G01 X41.8494 Y74.3567
G01 X41.8264 Y74.4482
G01 X41.8192 Y74.4732
G01 X41.8113 Y74.4967
G01 X41.7816 Y74.5795
G01 X41.7705 Y74.6078
G01 X41.7603 Y74.6304
G01 X41.7238 Y74.7077
G01 X41.7136 Y74.7281
G01 X41.6988 Y74.7546
G01 X41.6508 Y74.8348
G01 X41.6365 Y74.8569
G01 X41.6217 Y74.8781
G01 X41.5684 Y74.9499
G01 X41.5505 Y74.9726
G01 X41.5332 Y74.9925
G01 X41.4759 Y75.0558
G01 X41.4625 Y75.0699
G01 X41.4387 Y75.0931
G01 X41.3714 Y75.1542
G01 X41.3526 Y75.1705
G01 X41.3338 Y75.1854
G01 X41.2581 Y75.2417
G01 X41.2369 Y75.2565
G01 X41.2135 Y75.2715
G01 X41.1410 Y75.3150
G01 X41.2152 Y75.3596
G01 X41.2302 Y75.3691
G01 X41.2451 Y75.3791
G01 X41.3346 Y75.4453
G01 X41.3541 Y75.4609
G01 X41.3714 Y75.4759
G01 X43.8559 Y75.4763
G01 X44.7922 Y74.5400
G01 X44.8094 Y74.5236
G01 X44.8521 Y74.4849
G01 X44.8671 Y74.4719
G01 X44.8810 Y74.4606
G01 X44.9359 Y74.4195
G01 X44.9566 Y74.4049
G01 X44.9796 Y74.3901
G01 X45.0277 Y74.3612
G01 X45.0480 Y74.3497
G01 X45.0702 Y74.3382
G01 X45.1253 Y74.3120
G01 X45.1480 Y74.3019
G01 X45.1734 Y74.2919
G01 X45.2305 Y74.2715
G01 X45.2551 Y74.2636
G01 X45.2766 Y74.2575
G01 X45.3350 Y74.2429
G01 X45.3607 Y74.2373
G01 X45.3842 Y74.2332
G01 X45.4465 Y74.2240
G01 X45.4694 Y74.2214
G01 X45.4906 Y74.2198
G01 X45.5497 Y74.2169
G01 X45.5750 Y74.2164
G01 X50.8912 Y74.2164
G01 X50.9125 Y74.1959
G01 X50.9806 Y74.1342
G01 X50.9983 Y74.1190
G01 X51.0186 Y74.1029
G01 X51.0920 Y74.0484
G01 X51.1131 Y74.0335
G01 X51.1366 Y74.0185
G01 X51.2091 Y73.9750
G01 X51.1366 Y73.9315
G01 X51.1131 Y73.9165
G01 X51.0920 Y73.9017
G01 X51.0163 Y73.8454
G01 X50.9975 Y73.8305
G01 X50.9787 Y73.8142
G01 X50.9113 Y73.7531
G01 X50.8875 Y73.7299
G01 X50.8742 Y73.7158
G01 X50.8168 Y73.6525
G01 X50.7996 Y73.6326
G01 X50.7817 Y73.6099
G01 X50.7284 Y73.5381
G01 X50.7135 Y73.5169
G01 X50.6988 Y73.4939
G01 X50.6507 Y73.4137
G01 X50.6347 Y73.3846
G01 X50.6261 Y73.3672
G01 X50.5895 Y73.2900
G01 X50.5788 Y73.2659
G01 X50.5683 Y73.2391
G01 X50.5381 Y73.1548
G01 X50.5300 Y73.1303
G01 X50.5228 Y73.1050
G01 X50.5001 Y73.0143
G01 X50.4937 Y72.9846
G01 X50.4899 Y72.9621
G01 X50.4773 Y72.8776
G01 X50.4742 Y72.8530
G01 X50.4717 Y72.8227
G01 X50.4673 Y72.7329
G01 X50.4666 Y72.7070
G01 X50.4672 Y72.6797
G01 X50.4718 Y72.5864
G01 X50.4747 Y72.5522
G01 X50.4772 Y72.5329
G01 X50.4909 Y72.4411
G01 X50.4953 Y72.4176
G01 X50.5007 Y72.3933
G01 X50.5220 Y72.3085
G01 X50.5289 Y72.2836
G01 X50.5375 Y72.2571
G01 X50.5671 Y72.1743
G01 X50.5758 Y72.1516
G01 X50.5856 Y72.1286
G01 X50.6256 Y72.0438
G01 X50.6347 Y72.0254
G01 X50.6436 Y72.0089
G01 X50.6525 Y71.9933
G01 X50.6975 Y71.9183
G01 X50.7097 Y71.8990
G01 X50.7269 Y71.8740
G01 X50.7793 Y71.8034
G01 X50.8009 Y71.7760
G01 X50.8162 Y71.7583
G01 X50.8773 Y71.6910
G01 X50.8952 Y71.6724
G01 X50.9110 Y71.6573
G01 X50.9861 Y71.5893
G01 X51.0045 Y71.5739
G01 X51.0230 Y71.5596
G01 X51.0920 Y71.5084
G01 X51.1131 Y71.4935
G01 X51.1366 Y71.4785
G01 X51.2091 Y71.4350
G01 X51.2073 Y71.4340
G01 X46.1661 Y71.4336
G01 X46.1472 Y71.4330
G01 X46.0941 Y71.4304
G01 X46.0634 Y71.4280
G01 X46.0412 Y71.4253
G01 X45.9877 Y71.4174
G01 X45.9568 Y71.4120
G01 X45.9340 Y71.4069
G01 X45.8820 Y71.3939
G01 X45.8551 Y71.3865
G01 X45.8268 Y71.3773
G01 X45.7767 Y71.3594
G01 X45.7590 Y71.3526
G01 X45.7271 Y71.3389
G01 X45.6755 Y71.3145
G01 X45.6569 Y71.3051
G01 X45.6277 Y71.2888
G01 X45.5809 Y71.2607
G01 X45.5633 Y71.2496
G01 X45.5359 Y71.2305
G01 X45.4920 Y71.1980
G01 X45.4756 Y71.1852
G01 X45.4521 Y71.1652
G01 X45.4116 Y71.1285
G01 X45.3982 Y71.1159
G01 X41.8158 Y67.5337
G01 X41.3720 Y67.5337
G01 X41.3541 Y67.5492
G01 X41.3346 Y67.5648
G01 X41.2451 Y67.6309
G01 X41.2302 Y67.6410
G01 X41.2152 Y67.6505
G01 X41.1410 Y67.6950
G01 X41.4371 Y67.6975
G01 X41.4561 Y67.7127
G01 X41.4736 Y67.7276
G01 X41.4827 Y67.7356
G01 X41.4828 Y67.7358
G01 X41.5447 Y67.7918
G01 X41.5452 Y67.7923
G01 X41.5678 Y67.8137
G01 X41.5905 Y67.8370
G01 X41.6578 Y67.9112
G01 X41.6803 Y67.9375
G01 X41.7005 Y67.9634
G01 X41.7593 Y68.0428
G01 X41.7727 Y68.0621
G01 X41.7874 Y68.0848
G01 X41.8374 Y68.1680
G01 X41.8540 Y68.1972
G01 X41.8696 Y68.2276
G01 X41.9108 Y68.3148
G01 X41.9253 Y68.3480
G01 X41.9373 Y68.3794
G01 X41.9664 Y68.4608
G01 X41.9752 Y68.4869
G01 X41.9857 Y68.5239
G01 X42.0095 Y68.6187
G01 X42.0167 Y68.6520
G01 X42.0222 Y68.6837
G01 X42.0358 Y68.7754
G01 X42.0400 Y68.8120
G01 X42.0422 Y68.8438
G01 X42.0464 Y68.9302
G01 X42.0472 Y68.9585
G01 X42.0466 Y68.9956
G01 X42.0422 Y69.0862
G01 X42.0408 Y69.1087
G01 X42.0388 Y69.1305
G01 X42.0351 Y69.1594
G01 X42.0209 Y69.2550
G01 X42.0156 Y69.2840
G01 X42.0097 Y69.3107
G01 X41.9833 Y69.4153
G01 X41.9752 Y69.4431
G01 X41.9656 Y69.4717
G01 X41.9354 Y69.5559
G01 X41.9230 Y69.5877
G01 X41.9105 Y69.6159
G01 X41.8714 Y69.6986
G01 X41.8576 Y69.7262
G01 X41.8433 Y69.7520
G01 X41.7936 Y69.8351
G01 X41.7798 Y69.8572
G01 X41.7669 Y69.8766
G01 X41.7534 Y69.8955
G01 X41.6993 Y69.9683
G01 X41.6806 Y69.9922
G01 X41.6583 Y70.0184
G01 X41.5981 Y70.0848
G01 X41.5829 Y70.1011
G01 X41.5675 Y70.1167
G01 X41.5467 Y70.1364
G01 X41.4770 Y70.1995
G01 X41.4561 Y70.2174
G01 X41.4339 Y70.2350
G01 X41.4557 Y70.2523
G01 X41.4747 Y70.2686
G01 X41.5461 Y70.3332
G01 X41.5643 Y70.3503
G01 X41.5798 Y70.3657
G01 X41.5943 Y70.3812
G01 X41.6549 Y70.4480
G01 X41.6694 Y70.4645
G01 X41.6841 Y70.4822
G01 X41.6989 Y70.5012
G01 X41.7532 Y70.5744
G01 X41.7674 Y70.5944
G01 X41.7783 Y70.6105
G01 X41.7899 Y70.6289
G01 X41.8380 Y70.7091
G01 X41.8521 Y70.7337
G01 X41.8655 Y70.7594
G01 X41.9085 Y70.8498
G01 X41.9245 Y70.8861
G01 X41.9374 Y70.9196
G01 X41.9693 Y71.0089
G01 X41.9756 Y71.0284
G01 X41.9820 Y71.0499
G01 X41.9873 Y71.0699
G01 X42.0108 Y71.1641
G01 X42.0172 Y71.1945
G01 X42.0222 Y71.2237
G01 X42.0356 Y71.3141
G01 X42.0396 Y71.3480
G01 X42.0419 Y71.3788
G01 X42.0466 Y71.4749
G01 X42.0472 Y71.5070
G01 X42.0466 Y71.5359
G01 X42.0419 Y71.6320
G01 X42.0391 Y71.6675
G01 X42.0352 Y71.6989
G01 X42.0208 Y71.7954
G01 X42.0153 Y71.8255
G01 X42.0085 Y71.8556
G01 X41.9861 Y71.9450
G01 X41.9766 Y71.9783
G01 X41.9664 Y72.0093
G01 X41.9322 Y72.1045
G01 X41.9228 Y72.1281
G01 X41.9136 Y72.1492
G01 X41.8726 Y72.2361
G01 X41.8587 Y72.2640
G01 X41.8436 Y72.2916
G01 X41.7927 Y72.3766
G01 X41.7752 Y72.4042
G01 X41.7556 Y72.4324
G01 X41.7022 Y72.5045
G01 X41.6828 Y72.5295
G01 X41.6619 Y72.5543
G01 X41.5964 Y72.6267
G01 X41.5746 Y72.6496
G01 X41.5489 Y72.6743
G01 X41.4785 Y72.7381
G01 X41.4569 Y72.7568
G01 X41.4339 Y72.7750
G01 X41.4569 Y72.7933
G01 X41.4785 Y72.8120
G01 X41.5489 Y72.8757
G01 X41.5739 Y72.8998
G01 X41.5962 Y72.9232
G01 X41.6596 Y72.9932
G01 X41.6803 Y73.0175
G01 X41.6980 Y73.0400
G01 X41.7550 Y73.1169
G01 X41.7727 Y73.1421
G01 X41.7911 Y73.1709
G01 X41.8396 Y73.2517
G01 X41.8540 Y73.2772
G01 X41.8678 Y73.3039
G01 X41.9094 Y73.3916
G01 X41.9212 Y73.4182
G01 X41.9349 Y73.4528
G01 X41.9655 Y73.5381
G01 X41.9729 Y73.5599
G01 X41.9795 Y73.5814
G01 X41.9869 Y73.6085
G01 X42.0107 Y73.7037
G01 X42.0172 Y73.7345
G01 X42.0224 Y73.7649
G01 X42.0356 Y73.8541
G01 X42.0396 Y73.8880
G01 X42.0419 Y73.9188
G01 X42.0466 Y74.0142
G01 X42.0472 Y74.0430
G01 X42.0467 Y74.0749
G01 X42.0421 Y74.1693
G01 X42.0397 Y74.2015
G01 X42.0376 Y74.2204
G01 X42.0348 Y74.2414
G01 X42.0217 Y74.3294
G01 X42.0164 Y74.3595
G01 X42.0127 Y74.3776
G01 X42.0078 Y74.3985
G01 X41.9860 Y74.4853
G01 X41.9768 Y74.5179
G01 X41.9673 Y74.5469
G01 X41.9373 Y74.6307
G01 X41.9299 Y74.6506
G01 X41.9228 Y74.6681
G01 X41.9105 Y74.6959
G01 X41.8724 Y74.7766
G01 X41.8628 Y74.7960
G01 X41.8538 Y74.8133
G01 X41.8396 Y74.8384
G01 X41.7936 Y74.9151
G01 X41.7823 Y74.9334
G01 X41.7719 Y74.9492
G01 X41.7550 Y74.9732
G01 X41.7011 Y75.0459
G01 X41.6884 Y75.0625
G01 X41.6748 Y75.0792
G01 X41.6563 Y75.1006
G01 X41.5967 Y75.1663
G01 X41.5826 Y75.1814
G01 X41.5675 Y75.1967
G01 X41.5467 Y75.2164
G01 X41.4776 Y75.2790
G01 X41.4588 Y75.2952
G01 X41.4378 Y75.3121
G01 X43.7880 Y75.3125
G01 X44.6788 Y74.4217
G01 X44.6990 Y74.4025
G01 X44.7472 Y74.3589
G01 X44.7663 Y74.3427
G01 X44.7878 Y74.3256
G01 X44.8414 Y74.2857
G01 X44.8660 Y74.2684
G01 X44.8935 Y74.2508
G01 X44.9474 Y74.2184
G01 X44.9721 Y74.2045
G01 X44.9988 Y74.1908
G01 X45.0582 Y74.1626
G01 X45.0858 Y74.1504
G01 X45.1166 Y74.1383
G01 X45.1770 Y74.1167
G01 X45.2033 Y74.1081
G01 X45.2316 Y74.1000
G01 X45.2954 Y74.0840
G01 X45.3243 Y74.0775
G01 X45.3564 Y74.0717
G01 X45.4179 Y74.0626
G01 X45.4468 Y74.0591
G01 X45.4767 Y74.0566
G01 X45.5429 Y74.0533
G01 X45.5743 Y74.0526
G01 X50.8267 Y74.0526
G01 X50.8795 Y74.0049
G01 X50.8979 Y73.9895
G01 X50.9161 Y73.9750
G01 X50.8940 Y73.9574
G01 X50.8730 Y73.9395
G01 X50.8037 Y73.8767
G01 X50.7833 Y73.8574
G01 X50.7689 Y73.8429
G01 X50.7534 Y73.8263
G01 X50.6938 Y73.7606
G01 X50.6752 Y73.7392
G01 X50.6617 Y73.7225
G01 X50.6483 Y73.7051
G01 X50.5951 Y73.6332
G01 X50.5776 Y73.6084
G01 X50.5672 Y73.5925
G01 X50.5563 Y73.5749
G01 X50.5105 Y73.4984
G01 X50.4956 Y73.4719
G01 X50.4868 Y73.4552
G01 X50.4773 Y73.4359
G01 X50.4391 Y73.3550
G01 X50.4256 Y73.3240
G01 X50.4145 Y73.2954
G01 X50.3843 Y73.2112
G01 X50.3776 Y73.1916
G01 X50.3717 Y73.1726
G01 X50.3638 Y73.1443
G01 X50.3421 Y73.0575
G01 X50.3371 Y73.0361
G01 X50.3329 Y73.0156
G01 X50.3279 Y72.9869
G01 X50.3145 Y72.8964
G01 X50.3114 Y72.8715
G01 X50.3092 Y72.8472
G01 X50.3035 Y72.7379
G01 X50.3030 Y72.7180
G01 X50.3029 Y72.6985
G01 X50.3036 Y72.6702
G01 X50.3080 Y72.5808
G01 X50.3096 Y72.5574
G01 X50.3119 Y72.5347
G01 X50.3150 Y72.5104
G01 X50.3283 Y72.4209
G01 X50.3319 Y72.3998
G01 X50.3362 Y72.3779
G01 X50.3418 Y72.3535
G01 X50.3654 Y72.2596
G01 X50.3734 Y72.2317
G01 X50.3820 Y72.2055
G01 X50.4164 Y72.1094
G01 X50.4239 Y72.0903
G01 X50.4322 Y72.0705
G01 X50.4414 Y72.0503
G01 X50.4828 Y71.9630
G01 X50.4963 Y71.9368
G01 X50.5105 Y71.9117
G01 X50.5640 Y71.8227
G01 X50.5799 Y71.7984
G01 X50.5963 Y71.7752
G01 X50.6508 Y71.7018
G01 X50.6688 Y71.6787
G01 X50.6910 Y71.6527
G01 X50.7407 Y71.5977
G01 X46.1601 Y71.5973
G01 X46.1394 Y71.5967
G01 X46.0823 Y71.5938
G01 X46.0438 Y71.5907
G01 X46.0179 Y71.5875
G01 X45.9614 Y71.5791
G01 X45.9415 Y71.5758
G01 X45.9209 Y71.5718
G01 X45.8954 Y71.5661
G01 X45.8402 Y71.5523
G01 X45.8023 Y71.5417
G01 X45.7754 Y71.5328
G01 X45.7225 Y71.5139
G01 X45.7024 Y71.5064
G01 X45.6848 Y71.4993
G01 X45.6589 Y71.4878
G01 X45.6084 Y71.4640
G01 X45.5734 Y71.4463
G01 X45.5422 Y71.4286
G01 X45.4941 Y71.3997
G01 X45.4710 Y71.3850
G01 X45.4387 Y71.3624
G01 X45.3931 Y71.3285
G01 X45.3725 Y71.3125
G01 X45.3430 Y71.2874
G01 X45.3007 Y71.2491
G01 X45.2845 Y71.2339
G01 X41.7480 Y67.6975
G01 X41.4371 Y67.6975
G01 X42.0547 Y68.2359
G01 X42.0644 Y68.2568
G01 X42.0739 Y68.2788
G01 X42.0825 Y68.3001
G01 X42.0912 Y68.3234
G01 X42.1206 Y68.4053
G01 X42.1278 Y68.4266
G01 X42.1378 Y68.4590
G01 X42.1461 Y68.4898
G01 X42.1703 Y68.5870
G01 X42.1761 Y68.6137
G01 X42.1813 Y68.6412
G01 X42.1994 Y68.7632
G01 X42.2032 Y68.7980
G01 X42.2057 Y68.8332
G01 X42.2100 Y68.9216
G01 X42.2108 Y68.9441
G01 X42.2109 Y68.9782
G01 X42.2099 Y69.0108
G01 X42.2054 Y69.1028
G01 X42.2022 Y69.1421
G01 X42.1978 Y69.1786
G01 X42.1844 Y69.2696
G01 X42.1782 Y69.3056
G01 X42.1710 Y69.3401
G01 X42.1463 Y69.4396
G01 X42.1397 Y69.4643
G01 X42.1321 Y69.4902
G01 X42.1241 Y69.5147
G01 X42.1199 Y69.5266
G01 X42.1198 Y69.5270
G01 X42.0916 Y69.6056
G01 X42.0868 Y69.6187
G01 X42.0743 Y69.6504
G01 X42.0619 Y69.6788
G01 X42.0193 Y69.7691
G01 X42.0048 Y69.7981
G01 X41.9926 Y69.8207
G01 X41.9794 Y69.8438
G01 X41.9315 Y69.9236
G01 X41.9139 Y69.9514
G01 X41.8995 Y69.9727
G01 X41.8839 Y69.9944
G01 X41.8288 Y70.0687
G01 X41.8042 Y70.0998
G01 X41.7804 Y70.1275
G01 X41.7179 Y70.1965
G01 X41.6991 Y70.2166
G01 X41.6807 Y70.2350
G01 X41.6989 Y70.2533
G01 X41.7176 Y70.2732
G01 X41.7799 Y70.3420
G01 X41.8029 Y70.3687
G01 X41.8175 Y70.3868
G01 X41.8330 Y70.4070
G01 X41.8874 Y70.4804
G01 X41.9072 Y70.5086
G01 X41.9204 Y70.5287
G01 X41.9338 Y70.5503
G01 X41.9808 Y70.6287
G01 X41.9981 Y70.6594
G01 X42.0089 Y70.6799
G01 X42.0197 Y70.7018
G01 X42.0581 Y70.7831
G01 X42.0715 Y70.8130
G01 X42.0811 Y70.8363
G01 X42.0906 Y70.8616
G01 X42.1219 Y70.9490
G01 X42.1327 Y70.9820
G01 X42.1394 Y71.0045
G01 X42.1457 Y71.0283
G01 X42.1676 Y71.1156
G01 X42.1749 Y71.1475
G01 X42.1796 Y71.1720
G01 X42.1840 Y71.1983
G01 X42.1974 Y71.2882
G01 X42.2015 Y71.3210
G01 X42.2038 Y71.3449
G01 X42.2054 Y71.3683
G01 X42.2106 Y71.4770
G01 X42.2110 Y71.5093
G01 X42.2103 Y71.5413
G01 X42.2056 Y71.6378
G01 X42.2033 Y71.6703
G01 X42.2008 Y71.6957
G01 X42.1973 Y71.7221
G01 X42.1840 Y71.8121
G01 X42.1784 Y71.8446
G01 X42.1735 Y71.8691
G01 X42.1673 Y71.8957
G01 X42.1448 Y71.9854
G01 X42.1354 Y72.0194
G01 X42.1284 Y72.0416
G01 X42.1202 Y72.0657
G01 X42.0894 Y72.1517
G01 X42.0769 Y72.1841
G01 X42.0676 Y72.2059
G01 X42.0570 Y72.2295
G01 X42.0178 Y72.3123
G01 X42.0011 Y72.3452
G01 X41.9819 Y72.3795
G01 X41.9346 Y72.4585
G01 X41.9213 Y72.4799
G01 X41.9088 Y72.4992
G01 X41.8878 Y72.5291
G01 X41.8333 Y72.6027
G01 X41.8181 Y72.6225
G01 X41.8031 Y72.6412
G01 X41.7800 Y72.6680
G01 X41.7177 Y72.7368
G01 X41.6989 Y72.7567
G01 X41.6807 Y72.7750
G01 X41.6989 Y72.7933
G01 X41.7172 Y72.8127
G01 X41.7797 Y72.8817
G01 X41.8011 Y72.9066
G01 X41.8169 Y72.9260
G01 X41.8317 Y72.9453
G01 X41.8857 Y73.0181
G01 X41.9026 Y73.0419
G01 X41.9176 Y73.0642
G01 X41.9312 Y73.0860
G01 X41.9790 Y73.1656
G01 X41.9939 Y73.1916
G01 X42.0045 Y73.2113
G01 X42.0152 Y73.2325
G01 X42.0590 Y73.3250
G01 X42.0721 Y73.3544
G01 X42.0844 Y73.3850
G01 X42.1201 Y73.4839
G01 X42.1335 Y73.5247
G01 X42.1398 Y73.5460
G01 X42.1461 Y73.5698
G01 X42.1699 Y73.6653
G01 X42.1753 Y73.6895
G01 X42.1802 Y73.7152
G01 X42.1844 Y73.7408
G01 X42.1989 Y73.8392
G01 X42.2026 Y73.8722
G01 X42.2051 Y73.9026
G01 X42.2103 Y74.0080
G01 X42.2109 Y74.0311
G01 X42.2110 Y74.0543
G01 X42.2101 Y74.0869
G01 X42.2056 Y74.1778
G01 X42.2040 Y74.2022
G01 X42.2016 Y74.2278
G01 X42.1977 Y74.2596
G01 X42.1844 Y74.3496
G01 X42.1804 Y74.3736
G01 X42.1763 Y74.3957
G01 X42.1684 Y74.4313
G01 X42.1464 Y74.5192
G01 X42.1348 Y74.5613
G01 X42.1280 Y74.5828
G01 X42.1201 Y74.6060
G01 X42.0894 Y74.6917
G01 X42.0766 Y74.7248
G01 X42.0676 Y74.7459
G01 X42.0576 Y74.7681
G01 X42.0191 Y74.8494
G01 X42.0045 Y74.8787
G01 X41.9926 Y74.9007
G01 X41.9794 Y74.9238
G01 X41.9326 Y75.0018
G01 X41.9156 Y75.0289
G01 X41.9024 Y75.0486
G01 X41.8893 Y75.0670
G01 X41.8290 Y75.1483
G01 X43.7202 Y75.1487
G01 X44.5647 Y74.3042
G01 X44.5898 Y74.2805
G01 X44.6427 Y74.2327
G01 X44.6699 Y74.2099
G01 X44.6980 Y74.1881
G01 X44.7502 Y74.1495
G01 X44.7805 Y74.1286
G01 X44.8098 Y74.1100
G01 X44.8700 Y74.0740
G01 X44.9004 Y74.0571
G01 X44.9303 Y74.0419
G01 X44.9921 Y74.0127
G01 X45.0273 Y73.9974
G01 X45.0612 Y73.9842
G01 X45.1269 Y73.9607
G01 X45.1600 Y73.9501
G01 X45.1896 Y73.9417
G01 X45.2572 Y73.9247
G01 X45.2919 Y73.9170
G01 X45.3273 Y73.9105
G01 X45.3915 Y73.9009
G01 X45.4273 Y73.8964
G01 X45.4644 Y73.8932
G01 X45.5365 Y73.8896
G01 X45.5739 Y73.8888
G01 X50.5889 Y73.8888
G01 X50.5542 Y73.8497
G01 X50.5394 Y73.8318
G01 X50.5246 Y73.8130
G01 X50.4577 Y73.7228
G01 X50.4423 Y73.7006
G01 X50.4264 Y73.6763
G01 X50.3693 Y73.5814
G01 X50.3485 Y73.5443
G01 X50.3299 Y73.5073
G01 X50.2924 Y73.4279
G01 X50.2808 Y73.4023
G01 X50.2716 Y73.3801
G01 X50.2629 Y73.3578
G01 X50.2274 Y73.2587
G01 X50.2146 Y73.2189
G01 X50.2037 Y73.1793
G01 X50.1803 Y73.0855
G01 X50.1752 Y73.0626
G01 X50.1707 Y73.0398
G01 X50.1660 Y73.0112
G01 X50.1523 Y72.9187
G01 X50.1490 Y72.8932
G01 X50.1464 Y72.8665
G01 X50.1444 Y72.8379
G01 X50.1401 Y72.7496
G01 X50.1391 Y72.7093
G01 X50.1398 Y72.6663
G01 X50.1450 Y72.5621
G01 X50.1474 Y72.5330
G01 X50.1507 Y72.5029
G01 X50.1656 Y72.4015
G01 X50.1724 Y72.3613
G01 X50.1810 Y72.3215
G01 X50.2059 Y72.2222
G01 X50.2117 Y72.2009
G01 X50.2182 Y72.1791
G01 X50.2283 Y72.1488
G01 X50.2586 Y72.0641
G01 X50.2732 Y72.0260
G01 X50.2823 Y72.0044
G01 X50.2921 Y71.9829
G01 X50.3308 Y71.9010
G01 X50.3435 Y71.8755
G01 X50.3542 Y71.8552
G01 X50.3655 Y71.8352
G01 X50.4095 Y71.7615
G01 X46.1543 Y71.7610
G01 X46.1317 Y71.7603
G01 X46.0712 Y71.7573
G01 X46.0481 Y71.7556
G01 X46.0250 Y71.7534
G01 X45.9951 Y71.7497
G01 X45.9341 Y71.7406
G01 X45.9098 Y71.7365
G01 X45.8860 Y71.7319
G01 X45.8570 Y71.7253
G01 X45.7990 Y71.7108
G01 X45.7756 Y71.7045
G01 X45.7533 Y71.6980
G01 X45.7227 Y71.6879
G01 X45.6656 Y71.6675
G01 X45.6421 Y71.6587
G01 X45.6189 Y71.6492
G01 X45.5902 Y71.6365
G01 X45.5368 Y71.6113
G01 X45.5157 Y71.6009
G01 X45.4960 Y71.5906
G01 X45.4581 Y71.5691
G01 X45.4083 Y71.5392
G01 X45.3807 Y71.5216
G01 X45.3617 Y71.5087
G01 X45.3420 Y71.4946
G01 X45.2942 Y71.4591
G01 X45.2699 Y71.4402
G01 X45.2522 Y71.4255
G01 X45.2347 Y71.4103
G01 X45.1906 Y71.3704
G01 X45.1737 Y71.3546
G01 X42.0547 Y68.2359
G01 X42.1133 Y70.2350
G01 X42.1595 Y70.2976
G01 X42.1762 Y70.3216
G01 X42.1917 Y70.3449
G01 X42.2151 Y70.3823
G01 X42.2610 Y70.4590
G01 X42.2774 Y70.4874
G01 X42.2935 Y70.5171
G01 X42.3079 Y70.5454
G01 X42.3550 Y70.6446
G01 X42.3752 Y70.6902
G01 X42.3937 Y70.7367
G01 X42.4320 Y70.8435
G01 X42.4411 Y70.8705
G01 X42.4487 Y70.8951
G01 X42.4556 Y70.9191
G01 X42.4628 Y70.9460
G01 X42.4853 Y71.0356
G01 X42.4920 Y71.0643
G01 X42.4992 Y71.0988
G01 X42.5053 Y71.1326
G01 X42.5223 Y71.2463
G01 X42.5258 Y71.2738
G01 X42.5289 Y71.3029
G01 X42.5313 Y71.3313
G01 X42.5329 Y71.3578
G01 X42.5379 Y71.4635
G01 X42.5386 Y71.4945
G01 X42.5385 Y71.5250
G01 X42.5374 Y71.5616
G01 X42.5325 Y71.6599
G01 X42.5303 Y71.6921
G01 X42.5271 Y71.7254
G01 X42.5221 Y71.7654
G01 X42.5080 Y71.8603
G01 X42.5030 Y71.8906
G01 X42.4975 Y71.9198
G01 X42.4912 Y71.9497
G01 X42.4847 Y71.9769
G01 X42.4618 Y72.0680
G01 X42.4503 Y72.1097
G01 X42.4403 Y72.1419
G01 X42.4297 Y72.1732
G01 X42.3968 Y72.2650
G01 X42.3817 Y72.3041
G01 X42.3698 Y72.3327
G01 X42.3568 Y72.3615
G01 X42.3155 Y72.4491
G01 X42.3017 Y72.4772
G01 X42.2848 Y72.5093
G01 X42.2679 Y72.5394
G01 X42.2149 Y72.6282
G01 X42.2006 Y72.6514
G01 X42.1813 Y72.6810
G01 X42.1634 Y72.7069
G01 X42.1133 Y72.7750
G01 X42.1592 Y72.8372
G01 X42.1748 Y72.8595
G01 X42.1893 Y72.8813
G01 X42.2133 Y72.9193
G01 X42.2724 Y73.0185
G01 X42.2941 Y73.0582
G01 X42.3144 Y73.0986
G01 X42.3599 Y73.1953
G01 X42.3710 Y73.2203
G01 X42.3823 Y73.2474
G01 X42.3982 Y73.2889
G01 X42.4351 Y73.3926
G01 X42.4492 Y73.4368
G01 X42.4617 Y73.4816
G01 X42.4873 Y73.5840
G01 X42.4931 Y73.6090
G01 X42.4985 Y73.6351
G01 X42.5071 Y73.6839
G01 X42.5228 Y73.7898
G01 X42.5282 Y73.8351
G01 X42.5320 Y73.8820
G01 X42.5375 Y73.9925
G01 X42.5386 Y74.0410
G01 X42.5384 Y74.0667
G01 X42.5377 Y74.0945
G01 X42.5325 Y74.2005
G01 X42.5291 Y74.2452
G01 X42.5243 Y74.2885
G01 X42.5085 Y74.3968
G01 X42.5033 Y74.4289
G01 X42.4946 Y74.4740
G01 X42.4845 Y74.5175
G01 X42.4608 Y74.6120
G01 X42.4535 Y74.6387
G01 X42.4458 Y74.6646
G01 X42.4302 Y74.7118
G01 X42.3915 Y74.8191
G01 X43.5847 Y74.8209
G01 X44.3433 Y74.0626
G01 X44.3665 Y74.0408
G01 X44.4106 Y74.0007
G01 X44.4479 Y73.9683
G01 X44.4692 Y73.9509
G01 X44.4888 Y73.9356
G01 X44.5513 Y73.8891
G01 X44.5870 Y73.8639
G01 X44.6238 Y73.8398
G01 X44.6914 Y73.7990
G01 X44.7247 Y73.7798
G01 X44.7586 Y73.7616
G01 X44.7908 Y73.7455
G01 X44.8552 Y73.7151
G01 X44.8952 Y73.6975
G01 X44.9401 Y73.6797
G01 X45.0061 Y73.6559
G01 X45.0421 Y73.6437
G01 X45.0758 Y73.6334
G01 X45.1146 Y73.6227
G01 X45.1903 Y73.6039
G01 X45.2287 Y73.5955
G01 X45.2716 Y73.5877
G01 X45.3586 Y73.5747
G01 X45.3850 Y73.5715
G01 X45.4142 Y73.5686
G01 X45.4520 Y73.5658
G01 X45.5145 Y73.5626
G01 X45.5413 Y73.5616
G01 X45.5696 Y73.5612
G01 X49.9931 Y73.5612
G01 X49.9766 Y73.5241
G01 X49.9618 Y73.4877
G01 X49.9513 Y73.4597
G01 X49.9212 Y73.3755
G01 X49.9108 Y73.3451
G01 X49.9017 Y73.3162
G01 X49.8932 Y73.2864
G01 X49.8860 Y73.2592
G01 X49.8598 Y73.1534
G01 X49.8526 Y73.1201
G01 X49.8460 Y73.0844
G01 X49.8415 Y73.0567
G01 X49.8258 Y72.9488
G01 X49.8211 Y72.9067
G01 X49.8178 Y72.8644
G01 X49.8122 Y72.7489
G01 X49.8115 Y72.7179
G01 X49.8116 Y72.6876
G01 X49.8127 Y72.6485
G01 X49.8175 Y72.5511
G01 X49.8198 Y72.5180
G01 X49.8230 Y72.4846
G01 X49.8280 Y72.4447
G01 X49.8421 Y72.3498
G01 X49.8473 Y72.3178
G01 X49.8530 Y72.2878
G01 X49.8631 Y72.2425
G01 X49.8863 Y72.1498
G01 X49.8945 Y72.1189
G01 X49.9028 Y72.0904
G01 X46.1749 Y72.0889
G01 X46.1378 Y72.0883
G01 X46.0466 Y72.0840
G01 X46.0162 Y72.0817
G01 X45.9884 Y72.0790
G01 X45.9511 Y72.0743
G01 X45.8865 Y72.0648
G01 X45.8552 Y72.0596
G01 X45.8248 Y72.0537
G01 X45.7841 Y72.0447
G01 X45.7228 Y72.0295
G01 X45.6962 Y72.0225
G01 X45.6681 Y72.0145
G01 X45.6397 Y72.0056
G01 X45.6121 Y71.9963
G01 X45.5498 Y71.9740
G01 X45.5188 Y71.9622
G01 X45.4873 Y71.9493
G01 X45.4542 Y71.9346
G01 X45.3904 Y71.9044
G01 X45.3560 Y71.8872
G01 X45.3276 Y71.8719
G01 X45.2999 Y71.8562
G01 X45.2427 Y71.8219
G01 X45.2135 Y71.8037
G01 X45.1862 Y71.7856
G01 X45.1583 Y71.7661
G01 X45.1010 Y71.7237
G01 X45.0732 Y71.7023
G01 X45.0487 Y71.6824
G01 X45.0251 Y71.6623
G01 X44.9593 Y71.6027
G01 X44.9281 Y71.5726
G01 X42.5284 Y69.1728
G01 X42.5257 Y69.1978
G01 X42.5223 Y69.2239
G01 X42.5055 Y69.3360
G01 X42.4967 Y69.3840
G01 X42.4859 Y69.4320
G01 X42.4608 Y69.5320
G01 X42.4535 Y69.5587
G01 X42.4456 Y69.5850
G01 X42.4375 Y69.6105
G01 X42.4295 Y69.6338
G01 X42.3987 Y69.7199
G01 X42.3873 Y69.7502
G01 X42.3751 Y69.7801
G01 X42.3616 Y69.8111
G01 X42.3167 Y69.9065
G01 X42.2971 Y69.9461
G01 X42.2755 Y69.9861
G01 X42.2605 Y70.0120
G01 X42.2145 Y70.0887
G01 X42.1899 Y70.1279
G01 X42.1750 Y70.1503
G01 X42.1594 Y70.1726
G01 X42.1133 Y70.2350
G01 X42.3154 Y70.2350
G01 X42.3337 Y70.2629
G01 X42.3511 Y70.2907
G01 X42.4014 Y70.3745
G01 X42.4193 Y70.4056
G01 X42.4398 Y70.4435
G01 X42.4591 Y70.4817
G01 X42.5048 Y70.5783
G01 X42.5237 Y70.6206
G01 X42.5377 Y70.6549
G01 X42.5510 Y70.6898
G01 X42.5856 Y70.7866
G01 X42.5998 Y70.8291
G01 X42.6109 Y70.8660
G01 X42.6213 Y70.9046
G01 X42.6459 Y71.0028
G01 X42.6563 Y71.0490
G01 X42.6631 Y71.0843
G01 X42.6691 Y71.1195
G01 X42.6838 Y71.2186
G01 X42.6890 Y71.2590
G01 X42.6929 Y71.2974
G01 X42.6959 Y71.3380
G01 X42.7010 Y71.4407
G01 X42.7022 Y71.4815
G01 X42.7024 Y71.5172
G01 X42.7017 Y71.5522
G01 X42.6959 Y71.6721
G01 X42.6926 Y71.7157
G01 X42.6881 Y71.7592
G01 X42.6837 Y71.7925
G01 X42.6703 Y71.8827
G01 X42.6647 Y71.9169
G01 X42.6591 Y71.9469
G01 X42.6524 Y71.9792
G01 X42.6444 Y72.0132
G01 X42.6170 Y72.1218
G01 X42.6075 Y72.1555
G01 X42.5970 Y72.1896
G01 X42.5842 Y72.2276
G01 X42.5496 Y72.3241
G01 X42.5364 Y72.3586
G01 X42.5209 Y72.3959
G01 X42.5037 Y72.4342
G01 X42.4611 Y72.5242
G01 X42.4462 Y72.5543
G01 X42.4299 Y72.5853
G01 X42.4052 Y72.6291
G01 X42.3541 Y72.7145
G01 X42.3348 Y72.7456
G01 X42.3154 Y72.7750
G01 X42.3356 Y72.8058
G01 X42.3559 Y72.8386
G01 X42.4069 Y72.9238
G01 X42.4218 Y72.9501
G01 X42.4352 Y72.9746
G01 X42.4591 Y73.0217
G01 X42.5027 Y73.1137
G01 X42.5195 Y73.1510
G01 X42.5344 Y73.1866
G01 X42.5510 Y73.2298
G01 X42.5860 Y73.3275
G01 X42.5984 Y73.3649
G01 X42.6103 Y73.4041
G01 X42.6219 Y73.4470
G01 X42.6489 Y73.5557
G01 X42.6593 Y73.6042
G01 X42.6677 Y73.6506
G01 X42.6867 Y73.7796
G01 X42.6912 Y73.8188
G01 X42.6948 Y73.8608
G01 X42.6965 Y73.8886
G01 X42.7008 Y73.9757
G01 X42.7021 Y74.0126
G01 X42.7023 Y74.0646
G01 X42.7007 Y74.1146
G01 X42.6958 Y74.2138
G01 X42.6937 Y74.2434
G01 X42.6912 Y74.2708
G01 X42.6849 Y74.3235
G01 X42.6701 Y74.4242
G01 X42.6617 Y74.4735
G01 X42.6523 Y74.5198
G01 X42.6441 Y74.5547
G01 X42.6188 Y74.6552
G01 X43.5170 Y74.6570
G01 X44.2120 Y73.9620
G01 X44.2338 Y73.9407
G01 X44.2575 Y73.9184
G01 X44.3039 Y73.8764
G01 X44.3269 Y73.8562
G01 X44.3476 Y73.8387
G01 X44.3696 Y73.8208
G01 X44.3919 Y73.8035
G01 X44.4650 Y73.7494
G01 X44.5016 Y73.7240
G01 X44.5399 Y73.6991
G01 X44.6103 Y73.6566
G01 X44.6480 Y73.6350
G01 X44.6836 Y73.6159
G01 X44.7196 Y73.5980
G01 X44.7873 Y73.5660
G01 X44.8313 Y73.5467
G01 X44.8563 Y73.5364
G01 X44.8812 Y73.5268
G01 X44.9496 Y73.5021
G01 X44.9879 Y73.4891
G01 X45.0251 Y73.4775
G01 X45.0698 Y73.4651
G01 X45.1449 Y73.4463
G01 X45.1872 Y73.4368
G01 X45.2289 Y73.4288
G01 X45.2627 Y73.4232
G01 X45.3295 Y73.4134
G01 X45.3618 Y73.4093
G01 X45.3937 Y73.4060
G01 X45.4251 Y73.4034
G01 X45.4554 Y73.4015
G01 X45.5205 Y73.3984
G01 X45.5654 Y73.3974
G01 X49.7556 Y73.3974
G01 X49.7414 Y73.3517
G01 X49.7286 Y73.3048
G01 X49.7021 Y73.1987
G01 X49.6954 Y73.1689
G01 X49.6894 Y73.1389
G01 X49.6805 Y73.0873
G01 X49.6638 Y72.9735
G01 X49.6606 Y72.9475
G01 X49.6577 Y72.9183
G01 X49.6538 Y72.8654
G01 X49.6487 Y72.7596
G01 X49.6479 Y72.7294
G01 X49.6477 Y72.7009
G01 X49.6480 Y72.6746
G01 X49.6488 Y72.6464
G01 X49.6546 Y72.5307
G01 X49.6590 Y72.4777
G01 X49.6651 Y72.4265
G01 X49.6818 Y72.3145
G01 X49.6870 Y72.2838
G01 X49.6927 Y72.2542
G01 X46.1743 Y72.2527
G01 X46.1285 Y72.2519
G01 X46.0330 Y72.2472
G01 X46.0000 Y72.2447
G01 X45.9667 Y72.2414
G01 X45.9279 Y72.2365
G01 X45.8591 Y72.2263
G01 X45.8259 Y72.2207
G01 X45.7930 Y72.2144
G01 X45.7613 Y72.2076
G01 X45.7310 Y72.2004
G01 X45.6680 Y72.1845
G01 X45.6232 Y72.1720
G01 X45.5926 Y72.1625
G01 X45.5618 Y72.1522
G01 X45.4974 Y72.1292
G01 X45.4661 Y72.1175
G01 X45.4281 Y72.1021
G01 X45.3923 Y72.0863
G01 X45.3231 Y72.0538
G01 X45.2866 Y72.0357
G01 X45.2544 Y72.0186
G01 X45.2226 Y72.0007
G01 X45.1593 Y71.9629
G01 X45.1305 Y71.9451
G01 X45.0978 Y71.9236
G01 X45.0653 Y71.9010
G01 X45.0042 Y71.8559
G01 X44.9768 Y71.8349
G01 X44.9490 Y71.8125
G01 X44.9223 Y71.7899
G01 X44.8548 Y71.7292
G01 X44.8331 Y71.7087
G01 X44.8123 Y71.6884
G01 X42.6350 Y69.5111
G01 X42.6208 Y69.5674
G01 X42.6130 Y69.5964
G01 X42.6028 Y69.6314
G01 X42.5920 Y69.6648
G01 X42.5826 Y69.6921
G01 X42.5466 Y69.7923
G01 X42.5319 Y69.8297
G01 X42.5165 Y69.8660
G01 X42.5027 Y69.8964
G01 X42.4601 Y69.9864
G01 X42.4444 Y70.0178
G01 X42.4280 Y70.0487
G01 X42.4048 Y70.0897
G01 X42.3537 Y70.1751
G01 X42.3344 Y70.2061
G01 X42.3154 Y70.2350
G01 X42.5088 Y70.2350
G01 X42.5505 Y70.3049
G01 X42.5764 Y70.3513
G01 X42.5945 Y70.3860
G01 X42.6124 Y70.4226
G01 X42.6557 Y70.5144
G01 X42.6677 Y70.5411
G01 X42.6785 Y70.5662
G01 X42.6925 Y70.6009
G01 X42.7067 Y70.6387
G01 X42.7409 Y70.7343
G01 X42.7575 Y70.7846
G01 X42.7695 Y70.8252
G01 X42.7802 Y70.8646
G01 X42.8053 Y70.9650
G01 X42.8165 Y71.0150
G01 X42.8241 Y71.0540
G01 X42.8306 Y71.0922
G01 X42.8457 Y71.1934
G01 X42.8509 Y71.2329
G01 X42.8556 Y71.2774
G01 X42.8590 Y71.3214
G01 X42.8645 Y71.4314
G01 X42.8659 Y71.4720
G01 X42.8662 Y71.5117
G01 X42.8655 Y71.5518
G01 X42.8602 Y71.6664
G01 X42.8581 Y71.7010
G01 X42.8553 Y71.7360
G01 X42.8516 Y71.7708
G01 X42.8472 Y71.8058
G01 X42.8280 Y71.9340
G01 X42.8207 Y71.9741
G01 X42.8122 Y72.0152
G01 X42.8035 Y72.0523
G01 X42.7790 Y72.1500
G01 X42.7697 Y72.1843
G01 X42.7598 Y72.2179
G01 X42.7501 Y72.2486
G01 X42.7384 Y72.2828
G01 X42.7048 Y72.3765
G01 X42.6885 Y72.4193
G01 X42.6723 Y72.4585
G01 X42.6561 Y72.4949
G01 X42.6112 Y72.5901
G01 X42.5943 Y72.6244
G01 X42.5759 Y72.6597
G01 X42.5578 Y72.6923
G01 X42.5426 Y72.7185
G01 X42.5088 Y72.7750
G01 X42.5432 Y72.8325
G01 X42.5605 Y72.8624
G01 X42.5801 Y72.8982
G01 X42.5976 Y72.9322
G01 X42.6124 Y72.9626
G01 X42.6595 Y73.0627
G01 X42.6772 Y73.1031
G01 X42.6940 Y73.1448
G01 X42.7073 Y73.1803
G01 X42.7421 Y73.2778
G01 X42.7545 Y73.3151
G01 X42.7661 Y73.3532
G01 X42.7793 Y73.4012
G01 X42.8053 Y73.5050
G01 X42.8148 Y73.5470
G01 X42.8234 Y73.5900
G01 X42.8311 Y73.6350
G01 X42.8460 Y73.7354
G01 X42.8510 Y73.7736
G01 X42.8550 Y73.8117
G01 X42.8593 Y73.8675
G01 X42.8643 Y73.9670
G01 X42.8657 Y74.0027
G01 X42.8662 Y74.0400
G01 X42.8659 Y74.0775
G01 X42.8646 Y74.1178
G01 X42.8595 Y74.2192
G01 X42.8557 Y74.2710
G01 X42.8518 Y74.3091
G01 X42.8471 Y74.3466
G01 X42.8320 Y74.4487
G01 X42.8260 Y74.4858
G01 X43.4498 Y74.4925
G01 X44.0967 Y73.8456
G01 X44.1261 Y73.8171
G01 X44.1488 Y73.7959
G01 X44.2005 Y73.7491
G01 X44.2248 Y73.7280
