(G-CODE GENERATED BY FLATCAM v8.994 - www.flatcam.org - Version Date: 2020/11/7)

(Name: Est. Met. V1.0.drl_cnc)
(Type: G-code from Geometry)
(Units: MM)

(Created on Friday, 05 November 2021 at 12:33)

(This preprocessor is the default preprocessor used by FlatCAM.)
(It is made to work with MACH3 compatible motion controllers.)


(TOOLS DIAMETER: )
(Tool: 1 -> Dia: 0.75)
(Tool: 2 -> Dia: 0.8)
(Tool: 3 -> Dia: 1.0)

(FEEDRATE Z: )
(Tool: 1 -> Feedrate: 100.0)
(Tool: 2 -> Feedrate: 100.0)
(Tool: 3 -> Feedrate: 100.0)

(FEEDRATE RAPIDS: )
(Tool: 1 -> Feedrate Rapids: 1500)
(Tool: 2 -> Feedrate Rapids: 1500)
(Tool: 3 -> Feedrate Rapids: 1500)

(Z_CUT: )
(Tool: 1 -> Z_Cut: -1.7)
(Tool: 2 -> Z_Cut: -1.7)
(Tool: 3 -> Z_Cut: -1.7)

(Tools Offset: )
(Tool: 1 -> Offset Z: 0.0)
(Tool: 2 -> Offset Z: 0.0)
(Tool: 3 -> Offset Z: 0.0)

(Z_MOVE: )
(Tool: 1 -> Z_Move: 1.0)
(Tool: 2 -> Z_Move: 1.0)
(Tool: 3 -> Z_Move: 1.0)

(Z Toolchange: 15 mm)
(X,Y Toolchange: 0.0000, 0.0000 mm)
(Z Start: None mm)
(Z End: 0.5 mm)
(X,Y End: None mm)
(Steps per circle: 64)
(Preprocessor Excellon: default)

(X range:    4.6000 ...   93.1000  mm)
(Y range:    4.3500 ...   92.3500  mm)

(Spindle Speed: 1000 RPM)
G21
G90
G94

G01 F100.00

M5
G00 Z15.0000
T1
G00 X0.0000 Y0.0000                
M6
(MSG, Change to Tool Dia = 0.7500 ||| Total drills for tool T1 = 94)
M0
G00 Z15.0000

G01 F100.00
M03 S1000
G00 X54.1000 Y87.2500
G01 Z-1.7000
G01 Z0
G00 Z1.0000
G00 X66.6000 Y84.2900
G01 Z-1.7000
G01 Z0
G00 Z1.0000
G00 X66.6000 Y81.7500
G01 Z-1.7000
G01 Z0
G00 Z1.0000
G00 X66.6000 Y79.2100
G01 Z-1.7000
G01 Z0
G00 Z1.0000
G00 X92.6000 Y84.2900
G01 Z-1.7000
G01 Z0
G00 Z1.0000
G00 X92.6000 Y81.7500
G01 Z-1.7000
G01 Z0
G00 Z1.0000
G00 X92.6000 Y79.2100
G01 Z-1.7000
G01 Z0
G00 Z1.0000
G00 X92.6000 Y76.6700
G01 Z-1.7000
G01 Z0
G00 Z1.0000
G00 X92.6000 Y74.1300
G01 Z-1.7000
G01 Z0
G00 Z1.0000
G00 X92.6000 Y71.5900
G01 Z-1.7000
G01 Z0
G00 Z1.0000
G00 X92.6000 Y69.0500
G01 Z-1.7000
G01 Z0
G00 Z1.0000
G00 X92.6000 Y66.5100
G01 Z-1.7000
G01 Z0
G00 Z1.0000
G00 X92.6000 Y63.9700
G01 Z-1.7000
G01 Z0
G00 Z1.0000
G00 X92.6000 Y61.4300
G01 Z-1.7000
G01 Z0
G00 Z1.0000
G00 X92.6000 Y58.8900
G01 Z-1.7000
G01 Z0
G00 Z1.0000
G00 X92.6000 Y56.3500
G01 Z-1.7000
G01 Z0
G00 Z1.0000
G00 X66.6000 Y56.3500
G01 Z-1.7000
G01 Z0
G00 Z1.0000
G00 X66.6000 Y58.8900
G01 Z-1.7000
G01 Z0
G00 Z1.0000
G00 X66.6000 Y61.4300
G01 Z-1.7000
G01 Z0
G00 Z1.0000
G00 X66.6000 Y63.9700
G01 Z-1.7000
G01 Z0
G00 Z1.0000
G00 X66.6000 Y66.5100
G01 Z-1.7000
G01 Z0
G00 Z1.0000
G00 X66.6000 Y69.0500
G01 Z-1.7000
G01 Z0
G00 Z1.0000
G00 X66.6000 Y71.5900
G01 Z-1.7000
G01 Z0
G00 Z1.0000
G00 X66.6000 Y74.1300
G01 Z-1.7000
G01 Z0
G00 Z1.0000
G00 X66.6000 Y76.6700
G01 Z-1.7000
G01 Z0
G00 Z1.0000
G00 X52.6000 Y80.3500
G01 Z-1.7000
G01 Z0
G00 Z1.0000
G00 X52.6000 Y77.8100
G01 Z-1.7000
G01 Z0
G00 Z1.0000
G00 X52.6000 Y75.2700
G01 Z-1.7000
G01 Z0
G00 Z1.0000
G00 X52.6000 Y72.7300
G01 Z-1.7000
G01 Z0
G00 Z1.0000
G00 X52.6000 Y70.1900
G01 Z-1.7000
G01 Z0
G00 Z1.0000
G00 X52.6000 Y67.6500
G01 Z-1.7000
G01 Z0
G00 Z1.0000
G00 X39.8000 Y53.7500
G01 Z-1.7000
G01 Z0
G00 Z1.0000
G00 X39.8000 Y56.2900
G01 Z-1.7000
G01 Z0
G00 Z1.0000
G00 X39.8000 Y58.8300
G01 Z-1.7000
G01 Z0
G00 Z1.0000
G00 X39.8000 Y61.3700
G01 Z-1.7000
G01 Z0
G00 Z1.0000
G00 X39.8000 Y63.9100
G01 Z-1.7000
G01 Z0
G00 Z1.0000
G00 X39.8000 Y66.4500
G01 Z-1.7000
G01 Z0
G00 Z1.0000
G00 X39.8000 Y68.9900
G01 Z-1.7000
G01 Z0
G00 Z1.0000
G00 X39.8000 Y71.5300
G01 Z-1.7000
G01 Z0
G00 Z1.0000
G00 X39.8000 Y74.0700
G01 Z-1.7000
G01 Z0
G00 Z1.0000
G00 X39.8000 Y76.6100
G01 Z-1.7000
G01 Z0
G00 Z1.0000
G00 X39.8000 Y79.1500
G01 Z-1.7000
G01 Z0
G00 Z1.0000
G00 X39.8000 Y81.6900
G01 Z-1.7000
G01 Z0
G00 Z1.0000
G00 X39.8000 Y84.2300
G01 Z-1.7000
G01 Z0
G00 Z1.0000
G00 X39.8000 Y86.7700
G01 Z-1.7000
G01 Z0
G00 Z1.0000
G00 X24.5500 Y84.2300
G01 Z-1.7000
G01 Z0
G00 Z1.0000
G00 X24.5500 Y81.6900
G01 Z-1.7000
G01 Z0
G00 Z1.0000
G00 X24.5500 Y79.1500
G01 Z-1.7000
G01 Z0
G00 Z1.0000
G00 X24.5500 Y76.6100
G01 Z-1.7000
G01 Z0
G00 Z1.0000
G00 X24.5500 Y74.0700
G01 Z-1.7000
G01 Z0
G00 Z1.0000
G00 X24.5500 Y71.5300
G01 Z-1.7000
G01 Z0
G00 Z1.0000
G00 X24.5500 Y68.9900
G01 Z-1.7000
G01 Z0
G00 Z1.0000
G00 X24.5500 Y66.4500
G01 Z-1.7000
G01 Z0
G00 Z1.0000
G00 X24.5500 Y63.9100
G01 Z-1.7000
G01 Z0
G00 Z1.0000
G00 X24.5500 Y61.3700
G01 Z-1.7000
G01 Z0
G00 Z1.0000
G00 X24.5500 Y58.8300
G01 Z-1.7000
G01 Z0
G00 Z1.0000
G00 X24.5500 Y56.2900
G01 Z-1.7000
G01 Z0
G00 Z1.0000
G00 X24.5500 Y53.7500
G01 Z-1.7000
G01 Z0
G00 Z1.0000
G00 X24.5500 Y51.2100
G01 Z-1.7000
G01 Z0
G00 Z1.0000
G00 X24.5500 Y48.6700
G01 Z-1.7000
G01 Z0
G00 Z1.0000
G00 X24.5500 Y46.1300
G01 Z-1.7000
G01 Z0
G00 Z1.0000
G00 X24.5500 Y43.5900
G01 Z-1.7000
G01 Z0
G00 Z1.0000
G00 X39.8000 Y51.2100
G01 Z-1.7000
G01 Z0
G00 Z1.0000
G00 X39.8000 Y48.6700
G01 Z-1.7000
G01 Z0
G00 Z1.0000
G00 X39.8000 Y46.1300
G01 Z-1.7000
G01 Z0
G00 Z1.0000
G00 X39.8000 Y43.5900
G01 Z-1.7000
G01 Z0
G00 Z1.0000
G00 X47.3000 Y31.3500
G01 Z-1.7000
G01 Z0
G00 Z1.0000
G00 X51.1000 Y31.3500
G01 Z-1.7000
G01 Z0
G00 Z1.0000
G00 X57.1000 Y31.3500
G01 Z-1.7000
G01 Z0
G00 Z1.0000
G00 X60.9000 Y31.3500
G01 Z-1.7000
G01 Z0
G00 Z1.0000
G00 X70.6000 Y22.8500
G01 Z-1.7000
G01 Z0
G00 Z1.0000
G00 X70.6000 Y4.8500
G01 Z-1.7000
G01 Z0
G00 Z1.0000
G00 X30.6000 Y22.8500
G01 Z-1.7000
G01 Z0
G00 Z1.0000
G00 X30.6000 Y4.8500
G01 Z-1.7000
G01 Z0
G00 Z1.0000
G00 X18.6000 Y6.0500
G01 Z-1.7000
G01 Z0
G00 Z1.0000
G00 X18.6000 Y9.8500
G01 Z-1.7000
G01 Z0
G00 Z1.0000
G00 X18.6000 Y15.8500
G01 Z-1.7000
G01 Z0
G00 Z1.0000
G00 X18.6000 Y19.6500
G01 Z-1.7000
G01 Z0
G00 Z1.0000
G00 X5.6000 Y12.7700
G01 Z-1.7000
G01 Z0
G00 Z1.0000
G00 X5.6000 Y15.3100
G01 Z-1.7000
G01 Z0
G00 Z1.0000
G00 X5.6000 Y17.8500
G01 Z-1.7000
G01 Z0
G00 Z1.0000
G00 X5.1000 Y63.7700
G01 Z-1.7000
G01 Z0
G00 Z1.0000
G00 X5.1000 Y66.3100
G01 Z-1.7000
G01 Z0
G00 Z1.0000
G00 X5.1000 Y68.8500
G01 Z-1.7000
G01 Z0
G00 Z1.0000
G00 X5.1000 Y78.8500
G01 Z-1.7000
G01 Z0
G00 Z1.0000
G00 X5.1000 Y81.3900
G01 Z-1.7000
G01 Z0
G00 Z1.0000
G00 X5.1000 Y83.9300
G01 Z-1.7000
G01 Z0
G00 Z1.0000
G00 X24.5500 Y86.7700
G01 Z-1.7000
G01 Z0
G00 Z1.0000
G00 X24.5500 Y89.3100
G01 Z-1.7000
G01 Z0
G00 Z1.0000
G00 X24.5500 Y91.8500
G01 Z-1.7000
G01 Z0
G00 Z1.0000
G00 X39.8000 Y91.8500
G01 Z-1.7000
G01 Z0
G00 Z1.0000
G00 X39.8000 Y89.3100
G01 Z-1.7000
G01 Z0
G00 Z1.0000
G00 X54.1000 Y91.4500
G01 Z-1.7000
G01 Z0
G00 Z1.0000
G00 X54.1000 Y89.3500
G01 Z-1.7000
G01 Z0
G00 Z1.0000
M05
G00 Z0.50


